; HEADER_BLOCK_START
; generated by Creality_Print V7.1.1.4472 on 2026-07-01 at 12:56:16
; total layer number: 55
; filament_density: 1.24
; filament_diameter: 1.75
; max_z_height: 11.00
; creality_uuid: 40d0e088-3610-42b5-876c-b08271981e21
; HEADER_BLOCK_END

; MINX = 85.75
; MINY = 91.00
; MINZ = 0.00
; MAXX = 134.25
; MAXY = 129.00
; MAXZ = 11.00

; multicolor_method = 0 
; THUMBNAIL_BLOCK_START

;
; THUMBNAIL_BLOCK_END

; external perimeters extrusion width = 0.42mm
; perimeters extrusion width = 0.45mm
; infill extrusion width = 0.45mm
; solid infill extrusion width = 0.45mm
; top infill extrusion width = 0.42mm
; support material extrusion width = 0.38mm
; first layer extrusion width = 0.50mm

; EXECUTABLE_BLOCK_START
M73 P0 R45
M201 X2000 Y2000 Z100 E2000
M203 X250 Y250 Z30 E100
M204 P2000 R1000 T2000
M205 X12.00 Y12.00 Z0.40 E5.00 ; sets the jerk limits, mm/sec
M106 S0
M106 P2 S0
; max_print_temp = 80,205
;TYPE:Custom
G90 ; use absolute coordinates
M83 ; extruder relative mode
M104 S150 ; set temporary nozzle temp to prevent oozing during homing
M140 S80 ; set final bed temp
G4 S30 ; allow partial nozzle warmup
G28 ; home all axis and restore leveling
G1 Z50 F240
G1 X2.0 Y10 F3000
M104 S180 ; set final nozzle temp
M190 S80 ; wait for bed temp to stabilize
M109 S180 ; wait for nozzle temp to stabilize
M73 P1 R44
G1 Z0.28 F240
G92 E0
G1 X2.0 Y140 E10 F1500 ; prime the nozzle
M73 P2 R44
G1 X2.3 Y140 F5000
G92 E0
G1 X2.3 Y10 E10 F1200 ; prime the nozzle
G92 E0
G90
G21
M83 ; use relative distances for extrusion
; filament start gcode
G1 E-1 F2400
G1 Z.2 F12000
M106 S0
;LAYER_CHANGE
;:0.2
;HEIGHT:0.2
;BEFORE_LAYER_CHANGE
;0.2
G92 E0
;TIME_ELAPSED:118.851074
;_SET_FAN_SPEED_CHANGING_LAYER
M204 S500
M205 X9 Y9
G1 X76.179 Y82.016 Z.4 F12000
G1 Z.2
G1 E1 F2400
;TYPE:Skirt
;WIDTH:0.5
G1 F3000
G1 X77.169 Y81.145 E.0476
G1 X78.728 Y80.036 E.06907
G1 X79.53 Y79.563 E.03364
G1 X81.295 Y78.73 E.07047
G1 X82.206 Y78.398 E.03499
G1 X84.093 Y77.899 E.07047
G1 X85.048 Y77.738 E.03499
G1 X86.307 Y77.602 E.0457
G1 X90.144 Y77.424 E.1387
G1 X132.204 Y76.947 E1.51872
G1 X133.144 Y76.962 E.03396
G1 X135.085 Y77.171 E.07047
G1 X136.035 Y77.363 E.03499
G1 X137.905 Y77.922 E.07047
G1 X138.804 Y78.283 E.03499
G1 X140.541 Y79.173 E.07047
G1 X141.36 Y79.692 E.03499
G1 X142.906 Y80.882 E.07047
G1 X143.617 Y81.541 E.03499
G1 X144.921 Y82.994 E.07047
G1 X145.5 Y83.771 E.03499
G1 X146.518 Y85.436 E.07047
G1 X146.946 Y86.306 E.03499
G1 X147.644 Y88.128 E.07047
G1 X147.906 Y89.061 E.03496
G1 X148.26 Y90.97 E.07011
G1 X148.394 Y92.87 E.06878
G1 X148.558 Y125.677 E1.18454
G1 X148.505 Y126.792 E.04031
G1 X148.409 Y127.757 E.03503
G1 X148.038 Y129.673 E.07047
G1 X147.77 Y130.596 E.03469
G1 X147.111 Y132.304 E.0661
G1 X146.607 Y133.312 E.0407
G1 X145.581 Y134.956 E.06995
G1 X144.995 Y135.728 E.03502
G1 X143.674 Y137.173 E.07068
G1 X142.477 Y138.237 E.05784
G1 X140.201 Y140.074 E.10558
G1 X138.39 Y141.305 E.07908
G1 X136.652 Y142.195 E.07047
G1 X134.169 Y143.049 E.09481
G1 X132.772 Y143.335 E.05151
G1 X130.98 Y143.516 E.06502
G1 X89.401 Y143.338 E1.50128
G1 X87.253 Y143.256 E.07762
G1 X84.674 Y142.82 E.0944
G1 X82.142 Y141.96 E.09656
G1 X80.254 Y140.948 E.07735
G1 X78.483 Y139.643 E.07942
G1 X77.114 Y138.336 E.06835
G1 X75.736 Y136.642 E.07882
G1 X75.307 Y136.013 E.02748
G1 X74.344 Y134.276 E.07171
G1 X73.971 Y133.424 E.03358
G1 X73.534 Y132.24 E.04557
G1 X71.344 Y124.987 E.27356
G1 X71.038 Y123.583 E.05189
G1 X70.859 Y122.09 E.05428
G1 X70.788 Y101.464 E.74473
G1 X71.339 Y91.813 E.34905
G1 X71.772 Y89.487 E.08542
G1 X72.349 Y87.714 E.06733
G1 X73.356 Y85.631 E.08353
G1 X74.427 Y83.999 E.07047
G1 X75.018 Y83.257 E.03423
G1 X76.152 Y82.045 E.05994
G1 X76.484 Y82.356 F12000
G1 F3000
G1 X76.487 Y82.353 E.00013
G1 X77.454 Y81.502 E.04651
G1 X78.96 Y80.43 E.06675
G1 X79.762 Y79.957 E.03364
G1 X81.452 Y79.159 E.06746
G1 X82.362 Y78.827 E.03499
G1 X84.169 Y78.35 E.06746
G1 X85.124 Y78.189 E.03499
G1 X86.329 Y78.059 E.04374
G1 X90.149 Y77.881 E.13809
G1 X132.196 Y77.404 E1.51826
G1 X133.137 Y77.419 E.03396
G1 X134.994 Y77.619 E.06745
G1 X135.944 Y77.811 E.03499
G1 X137.734 Y78.346 E.06746
G1 X138.634 Y78.707 E.03499
G1 X140.297 Y79.559 E.06746
G1 X141.115 Y80.078 E.03499
G1 X142.595 Y81.218 E.06746
G1 X143.306 Y81.877 E.03499
G1 X144.554 Y83.267 E.06746
G1 X145.133 Y84.044 E.03499
G1 X146.108 Y85.638 E.06746
G1 X146.535 Y86.508 E.03499
G1 X147.204 Y88.252 E.06746
G1 X147.466 Y89.184 E.03496
G1 X147.805 Y91.012 E.06711
G1 X147.937 Y92.872 E.06733
G1 X148.101 Y125.679 E1.18454
G1 X148.05 Y126.746 E.03859
G1 X147.954 Y127.712 E.03503
G1 X147.599 Y129.546 E.06745
G1 X147.331 Y130.469 E.03469
G1 X146.701 Y132.104 E.06327
G1 X146.199 Y133.106 E.04048
G1 X145.217 Y134.679 E.06695
G1 X144.631 Y135.452 E.03502
G1 X143.366 Y136.835 E.06765
G1 X142.189 Y137.881 E.05687
G1 X139.914 Y139.718 E.10558
G1 X138.145 Y140.919 E.0772
G1 X136.482 Y141.771 E.06746
G1 X134.068 Y142.604 E.09222
G1 X132.688 Y142.886 E.05085
G1 X130.973 Y143.059 E.06224
G1 X89.403 Y142.881 E1.50093
G1 X87.306 Y142.802 E.07575
G1 X84.798 Y142.38 E.09185
G1 X82.336 Y141.546 E.09385
G1 X80.507 Y140.567 E.07492
G1 X78.787 Y139.302 E.07707
G1 X77.442 Y138.018 E.06714
G1 X76.114 Y136.384 E.07602
G1 X75.685 Y135.756 E.02748
G1 X74.763 Y134.093 E.06865
G1 X74.39 Y133.241 E.03358
G1 X73.971 Y132.108 E.04362
G1 X71.784 Y124.862 E.27327
G1 X71.488 Y123.501 E.05028
G1 X71.314 Y122.048 E.05284
G1 X71.245 Y101.464 E.7432
G1 X71.795 Y91.855 E.34752
G1 X72.212 Y89.612 E.08238
G1 X72.777 Y87.874 E.06598
G1 X73.76 Y85.845 E.08138
G1 X74.785 Y84.284 E.06746
G1 X75.375 Y83.542 E.03423
G1 X76.457 Y82.385 E.05718
; OBJECT_ID: 71
; printing object Support_PCB_v0005.STL id:2469735307307405312 copy 0
G1 E-.7 F2400
;WIPE_START
G1 F3000
G1 X76.487 Y82.353 E-.01244
G1 X77.205 Y81.721 E-.27256
;WIPE_END
G1 E-.015 F2400
G1 Z.4 F12000
G1 X132.972 Y87.646 Z.4
G1 Z.2
G1 E1 F2400
;TYPE:Support
G1 F1500
G3 X137.115 Y95.312 I-.738 J5.351 E.36602
G3 X136.736 Y100.41 I-6.659 J2.067 E.18897
G3 X136.737 Y102 I-4.297 J.8 E.05774
G3 X136.749 Y106.777 I-5.404 J2.401 E.17753
G3 X136.389 Y109.743 I-7.33 J.616 E.10865
G3 X136.521 Y111.937 I-26.364 J2.697 E.07936
G3 X136.968 Y116.508 I-4.723 J2.768 E.17113
G3 X137.152 Y120.585 I-5.366 J2.286 E.15053
G3 X137.159 Y123.04 I-6.091 J1.245 E.08924
G3 X134.601 Y130.564 I-4.576 J2.641 E.32477
G3 X126.407 Y131.325 I-4.426 J-3.171 E.33682
G3 X124.258 Y130.666 I.597 J-5.784 E.08166
G3 X119.527 Y128.062 I-.239 J-5.165 E.20517
G2 X118.183 Y127.21 I-3.456 J3.966 E.05767
G1 X117.206 Y127.088 E.03554
M73 P3 R44
G2 X115.572 Y126.192 I-5.141 J7.436 E.06743
G3 X113.947 Y123.255 I3.177 J-3.676 E.12374
G3 X111.885 Y119.131 I1.649 J-3.402 E.17901
G1 X118.73 Y115.179 E.28539
G1 X118.85 Y114.971 E.00871
G1 X118.85 Y105.029 E.35894
G1 X118.73 Y104.821 E.00871
G1 X111.158 Y100.449 E.31568
G3 X113.987 Y95.87 I3.851 J-.784 E.21406
G3 X117.404 Y92.005 I4.491 J.527 E.19823
G3 X122.794 Y89.398 I4.557 J2.546 E.23023
G2 X125.91 Y88.576 I-3.28 J-18.765 E.11649
G2 X128.437 Y87.929 I.248 J-4.283 E.09569
G3 X131.036 Y87.796 I1.804 J9.843 E.09423
G3 X132.904 Y87.645 I1.404 J5.726 E.06796
G1 X137.154 Y123.985 F12000
G1 F1500
G2 X136.917 Y123.486 I-1.474 J.395 E.02004
G1 X136.917 Y127.884 E.15878
G3 X136.409 Y128.685 I-2.437 J-.983 E.03445
G1 X136.409 Y112.643 E.57924
G3 X136.605 Y113.111 I-1.171 J.766 E.01844
G1 X136.775 Y120.408 F12000
G1 F1500
G1 X136.917 Y119.903 E.01895
G1 X136.917 Y117.588 E.08358
G2 X136.775 Y117.086 I-31.718 J8.715 E.01884
G1 E-.7 F2400
;WIPE_START
G1 F1500
G1 X136.917 Y117.588 E-.14868
G1 X136.917 Y118.066 E-.13632
;WIPE_END
G1 E-.015 F2400
G1 Z.4 F12000
G1 X136.775 Y105.524 Z.4
G1 Z.2
G1 E1 F2400
G1 F1500
G2 X136.775 Y103.276 I-4.369 J-1.124 E.08201
G1 X136.775 Y99.36 F12000
G1 F1500
G2 X136.917 Y98.838 I-1.359 J-.651 E.01964
G1 X136.917 Y96.091 E.09917
G2 X136.775 Y95.57 I-1.583 J.152 E.01959
G1 X137.065 Y94.341 F12000
G1 F1500
G3 X136.917 Y94.784 I-1.271 J-.179 E.01695
G1 X136.917 Y91.059 E.13448
G2 X136.546 Y90.327 I-2.166 J.637 E.02983
G1 X134.692 Y88.604 F12000
G1 F1500
G2 X134.378 Y88.464 I-.536 J.781 E.01251
G1 X134.378 Y130.209 E1.50724
G2 X134.885 Y129.984 I-.321 J-1.411 E.02018
G1 X134.885 Y88.726 E1.48964
G3 X135.393 Y89.05 I-.62 J1.535 E.02186
G1 X135.393 Y129.669 E1.4666
G2 X135.901 Y129.242 I-.897 J-1.583 E.02409
G1 X135.901 Y89.521 E1.43418
G3 X136.409 Y90.143 I-1.429 J1.684 E.02918
G1 X136.312 Y100.301 E.36676
G3 X136.267 Y108.811 I-78.517 J3.835 E.30743
G1 X134.228 Y130.375 F12000
M73 P3 R43
G1 F1500
G3 X133.87 Y130.846 I-1.468 J-.747 E.02147
G1 X133.87 Y88.26 E1.53761
G2 X133.362 Y88.144 I-.566 J1.315 E.01891
G1 X133.362 Y131.317 E1.55878
G3 X132.854 Y131.675 I-1.223 J-1.194 E.02257
G1 X132.854 Y88.056 E1.57493
G1 X132.346 Y88.047 E.01834
G1 X132.346 Y131.966 E1.58571
G1 X131.838 Y132.17 E.01976
G1 X131.838 Y88.072 E1.59218
G2 X131.33 Y88.16 I.617 J5.102 E.01861
G1 X131.33 Y132.315 E1.59427
G1 X131.624 Y132.248 E.01088
G1 X131.107 Y88.208 F12000
G1 F1500
G3 X130.823 Y88.288 I-.208 J-.195 E.01123
G1 X130.823 Y132.411 E1.5931
G3 X130.315 Y132.428 I-.306 J-1.482 E.01844
G1 X130.315 Y88.188 E1.59733
G1 X129.807 Y88.18 E.01834
M73 P4 R43
G1 X129.807 Y132.422 E1.59741
G1 X129.299 Y132.337 E.0186
G1 X129.299 Y88.196 E1.59374
G2 X128.791 Y88.281 I.588 J5.101 E.0186
G1 X128.791 Y132.21 E1.5861
G1 X128.283 Y132.025 E.01952
G1 X128.283 Y88.422 E1.5743
G1 X127.775 Y88.608 E.01952
G1 X127.775 Y131.761 E1.55809
G3 X127.267 Y131.422 I1.167 J-2.297 E.0221
G1 X127.267 Y88.856 E1.53689
G1 X127.57 Y88.707 E.01216
G1 X127.091 Y131.277 F12000
G1 F1500
G1 X126.76 Y130.975 E.01619
G1 X126.76 Y88.935 E1.5179
G2 X126.252 Y88.945 I-.216 J1.88 E.0184
G1 X126.252 Y130.881 E1.51415
G1 X125.744 Y130.796 E.0186
G1 X125.744 Y89.026 E1.50814
G2 X125.236 Y89.15 I.224 J2.014 E.01893
G1 X125.236 Y130.647 E1.49829
G1 X124.728 Y130.462 E.01952
G1 X124.728 Y89.339 E1.48479
G2 X124.22 Y89.608 I.587 J1.724 E.02083
G1 X124.22 Y130.255 E1.4676
G1 X123.712 Y130.255 E.01834
G1 X123.712 Y89.645 E1.46627
G1 X123.205 Y89.74 E.01865
G1 X123.205 Y130.188 E1.46044
G1 X122.697 Y130.093 E.01866
G1 X122.697 Y89.87 E1.45229
G1 X122.189 Y89.797 E.01853
M73 P5 R43
G1 X122.189 Y129.895 E1.4478
G3 X121.681 Y129.652 I.395 J-1.475 E.02046
G1 X121.681 Y89.788 E1.43933
G1 X121.173 Y89.812 E.01836
G1 X121.173 Y129.336 E1.42705
G3 X120.665 Y128.881 I.956 J-1.579 E.02475
G1 X120.665 Y89.93 E1.40636
G2 X120.157 Y90.085 I.148 J1.395 E.01929
G1 X120.157 Y128.277 E1.37894
G3 X119.844 Y127.774 I1.758 J-1.446 E.02145
G1 X118.832 Y104.404 F12000
G1 F1500
G3 X119.142 Y104.711 I-.111 J.422 E.01648
G1 X119.142 Y90.645 E.50787
G3 X119.649 Y90.317 I1.104 J1.154 E.02196
G1 X119.649 Y127.654 E1.34808
G3 X119.142 Y127.321 I.669 J-1.575 E.02204
G1 X119.256 Y104.909 E.80923
G1 E-.7 F2400
;WIPE_START
G1 F1500
G1 X119.251 Y105.909 E-.285
;WIPE_END
G1 E-.015 F2400
G1 Z.4 F12000
G1 X116.292 Y117.062 Z.4
G1 Z.2
G1 E1 F2400
G1 F1500
G1 X116.602 Y116.883 E.01292
G1 X116.602 Y126.244 E.33801
G3 X117.11 Y126.452 I-2.219 J6.153 E.01982
G1 X117.11 Y116.59 E.35609
G1 X117.618 Y116.296 E.02117
G1 X117.618 Y126.725 E.37653
G1 X118.126 Y126.788 E.01848
G1 X118.126 Y116.003 E.38941
G1 X118.634 Y115.71 E.02117
G1 X118.634 Y126.865 E.40275
G1 X118.972 Y127.168 E.0164
G1 E-.7 F2400
;WIPE_START
G1 F1500
G1 X118.634 Y126.865 E-.12948
G1 X118.634 Y126.319 E-.15552
;WIPE_END
G1 E-.015 F2400
G1 Z.4 F12000
G1 X118.26 Y91.458 Z.4
G1 Z.2
G1 E1 F2400
G1 F1500
G1 X118.634 Y91.066 E.01956
G1 X118.634 Y104.29 E.47747
G1 X118.126 Y103.997 E.02117
G1 X118.126 Y91.642 E.44608
G1 X117.758 Y92.215 E.02459
G1 X116.8 Y103.231 F12000
G1 F1500
G1 X117.11 Y103.41 E.01292
G1 X117.11 Y92.513 E.39346
G3 X117.618 Y92.383 I.563 J1.144 E.01906
G1 X117.618 Y103.704 E.40874
G1 X117.308 Y103.525 E.01292
M73 P5 R42
G1 X115.896 Y102.71 F12000
G1 F1500
G1 X115.587 Y102.531 E.01292
G1 X115.587 Y93.461 E.32747
G3 X116.094 Y93.039 I1.258 J.996 E.02402
G1 X116.094 Y102.824 E.3533
G1 X116.602 Y103.117 E.02117
G1 X116.602 Y92.723 E.37531
G2 X116.283 Y92.91 I.287 J.853 E.01346
G1 E-.7 F2400
;WIPE_START
G1 F1500
G1 X116.602 Y92.723 E-.10547
G1 X116.602 Y93.353 E-.17953
;WIPE_END
G1 E-.015 F2400
G1 Z.4 F12000
G1 X115.749 Y125.787 Z.4
G1 Z.2
G1 E1 F2400
G1 F1500
G2 X116.094 Y126.013 I.578 J-.508 E.0151
G1 X116.094 Y117.176 E.31907
G1 X115.587 Y117.469 E.02117
G1 X115.587 Y125.626 E.29451
G3 X115.079 Y125.043 I2.651 J-2.823 E.02796
G1 X115.079 Y117.762 E.26288
G1 X114.571 Y118.056 E.02117
G1 X114.571 Y124.041 E.21612
G2 X114.952 Y124.854 I2.447 J-.652 E.03259
G1 E-.7 F2400
;WIPE_START
G1 F1500
G1 X114.571 Y124.041 E-.25592
G1 X114.571 Y123.939 E-.02908
;WIPE_END
G1 E-.015 F2400
G1 Z.4 F12000
G1 X114.643 Y94.875 Z.4
G1 Z.2
G1 E1 F2400
G1 F1500
G3 X115.079 Y94.054 I4.309 J1.762 E.03363
G1 X115.079 Y102.238 E.29548
G1 X114.571 Y101.944 E.02117
G1 X114.571 Y95.092 E.24741
G2 X114.454 Y95.522 I1.932 J.755 E.01613
G1 E-.7 F2400
;WIPE_START
G1 F1500
G1 X114.571 Y95.092 E-.12711
G1 X114.571 Y95.646 E-.15789
;WIPE_END
G1 E-.015 F2400
G1 Z.4 F12000
G1 X113.753 Y118.528 Z.4
G1 Z.2
G1 E1 F2400
G1 F1500
G1 X114.063 Y118.349 E.01292
G1 X114.063 Y122.854 E.16267
G3 X113.555 Y122.571 I.591 J-1.657 E.02109
G1 X113.555 Y118.642 E.14186
G1 X113.047 Y118.935 E.02117
G1 X113.047 Y122.075 E.11335
G3 X112.539 Y121.253 I4.88 J-3.582 E.03493
G1 X112.539 Y119.229 E.07308
G2 X112.245 Y119.789 I.028 J.372 E.02729
G1 E-.7 F2400
;WIPE_START
G1 F1500
G1 X112.258 Y119.391 E-.11357
G1 X112.539 Y119.229 E-.09242
G1 X112.539 Y119.506 E-.07901
;WIPE_END
G1 E-.015 F2400
G1 Z.4 F12000
G1 X113.245 Y101.179 Z.4
G1 Z.2
G1 E1 F2400
G1 F1500
G1 X113.555 Y101.358 E.01292
G1 X113.555 Y96.435 E.17773
G3 X114.063 Y96.275 I.628 J1.102 E.01938
G1 X114.063 Y101.651 E.19413
G1 X114.373 Y101.83 E.01292
G1 X111.666 Y98.68 F12000
G1 F1500
G2 X111.54 Y100.194 I4.072 J1.102 E.05516
G1 X112.031 Y100.478 E.02051
G1 X112.031 Y97.815 E.09617
G3 X112.539 Y97.136 I9.379 J6.491 E.03061
G1 X112.539 Y100.771 E.13126
M73 P6 R42
G1 X113.047 Y101.065 E.02117
G1 X113.047 Y96.651 E.15935
G1 X112.705 Y96.978 E.0171
G1 E-.7 F2400
;WIPE_START
G1 F1500
G1 X113.047 Y96.651 E-.13495
G1 X113.047 Y97.178 E-.15005
;WIPE_END
G1 E-.015 F2400
G1 Z.4 F12000
G1 X91.235 Y88.125 Z.4
G1 Z.2
G1 E1 F2400
G1 F1500
G2 X93.416 Y88.407 I1.627 J-4.004 E.08028
G3 X96.574 Y89.19 I.36 J5.306 E.11939
G3 X101.363 Y92.111 I.071 J5.27 E.21357
G3 X103.555 Y93.71 I-3.264 J6.773 E.0985
G3 X106.936 Y96.999 I-.708 J4.111 E.18101
G3 X108.169 Y100.838 I-3.478 J3.234 E.15033
G1 X101.27 Y104.821 E.2876
G1 X101.15 Y105.029 E.00871
G1 X101.15 Y114.971 E.35894
G1 X101.27 Y115.179 E.00871
G1 X108.913 Y119.592 E.31863
G3 X106.054 Y124.1 I-3.887 J.696 E.21167
G3 X101.556 Y127.788 I-4.407 J-.788 E.22857
G3 X95.94 Y130.818 I-4.873 J-2.314 E.24652
G3 X92.017 Y131.72 I-3.068 J-4.36 E.14904
G3 X83.474 Y127.329 I-3.137 J-4.403 E.427
G3 X82.715 Y124.285 I4.471 J-2.731 E.11505
G3 X82.462 Y117.774 I4.32 J-3.428 E.25168
G3 X83.471 Y114.665 I8.229 J.951 E.1188
G3 X83.176 Y109.874 I4.821 J-2.702 E.17928
G3 X83.243 Y107.149 I9.294 J-1.136 E.09877
G3 X82.809 Y105.171 I6.822 J-2.532 E.07336
G3 X82.781 Y98.187 I3.937 J-3.508 E.27558
G3 X82.978 Y96.726 I7.664 J.289 E.05333
G3 X88.732 Y88.481 I4.272 J-3.149 E.47696
G3 X91.166 Y88.124 I2.011 J5.229 E.08956
G1 E-.7 F2400
;WIPE_START
G1 F1500
G1 X90.266 Y88.109 E-.25664
G1 X90.169 Y88.133 E-.02836
;WIPE_END
G1 E-.015 F2400
G1 Z.4 F12000
G1 X107.606 Y122.759 Z.4
G1 Z.2
G1 E1 F2400
G1 F1500
G2 X107.969 Y122.271 I-.975 J-1.102 E.02213
G1 X107.969 Y119.522 E.09925
G1 X107.461 Y119.229 E.02117
G1 X107.461 Y122.936 E.13385
G3 X106.953 Y123.317 I-1.251 J-1.138 E.02306
G1 X106.953 Y118.935 E.1582
G1 X106.445 Y118.642 E.02117
G1 X106.445 Y123.575 E.17811
G3 X105.937 Y123.705 I-.542 J-1.057 E.01909
G1 X105.937 Y118.349 E.1934
G1 X105.429 Y118.056 E.02117
G1 X105.429 Y124.806 E.24372
G3 X105.045 Y125.553 I-1.973 J-.543 E.03055
G1 E-.7 F2400
;WIPE_START
G1 F1500
G1 X105.429 Y124.806 E-.23943
G1 X105.429 Y124.646 E-.04557
;WIPE_END
G1 E-.015 F2400
G1 Z.4 F12000
G1 X107.102 Y97.823 Z.4
G1 Z.2
G1 E1 F2400
