; HEADER_BLOCK_START
; generated by Creality_Print V7.1.1.4472 on 2026-06-29 at 19:13:10
; total layer number: 72
; filament_density: 1.24
; filament_diameter: 1.75
; max_z_height: 14.40
; creality_uuid: 887ba13e-a370-409e-871a-6a1c320da4a6
; HEADER_BLOCK_END

; MINX = 69.50
; MINY = 31.78
; MINZ = 0.00
; MAXX = 150.50
; MAXY = 188.22
; MAXZ = 14.30

; multicolor_method = 0 
; THUMBNAIL_BLOCK_START

;
; THUMBNAIL_BLOCK_END

; external perimeters extrusion width = 0.42mm
; perimeters extrusion width = 0.45mm
; infill extrusion width = 0.45mm
; solid infill extrusion width = 0.45mm
; top infill extrusion width = 0.42mm
; support material extrusion width = 0.38mm
; first layer extrusion width = 0.50mm

; EXECUTABLE_BLOCK_START
M73 P0 R107
M201 X2000 Y2000 Z100 E2000
M203 X250 Y250 Z30 E100
M204 P2000 R1000 T2000
M205 X12.00 Y12.00 Z0.40 E5.00 ; sets the jerk limits, mm/sec
M106 S0
M106 P2 S0
; max_print_temp = 80,205
;TYPE:Custom
G90 ; use absolute coordinates
M83 ; extruder relative mode
M104 S150 ; set temporary nozzle temp to prevent oozing during homing
M140 S80 ; set final bed temp
G4 S30 ; allow partial nozzle warmup
G28 ; home all axis and restore leveling
G1 Z50 F240
G1 X2.0 Y10 F3000
M104 S180 ; set final nozzle temp
M190 S80 ; wait for bed temp to stabilize
M109 S180 ; wait for nozzle temp to stabilize
M73 P0 R106
G1 Z0.28 F240
G92 E0
G1 X2.0 Y140 E10 F1500 ; prime the nozzle
G1 X2.3 Y140 F5000
G92 E0
G1 X2.3 Y10 E10 F1200 ; prime the nozzle
G92 E0
G90
G21
M83 ; use relative distances for extrusion
; filament start gcode
G1 E-1 F2400
M73 P1 R105
G1 Z.2 F12000
M106 S0
;LAYER_CHANGE
;:0.2
;HEIGHT:0.2
;BEFORE_LAYER_CHANGE
;0.2
G92 E0
;TIME_ELAPSED:126.357224
;_SET_FAN_SPEED_CHANGING_LAYER
M204 S500
M205 X9 Y9
G1 X60.282 Y30.967 Z.4 F12000
G1 Z.2
G1 E1 F2400
;TYPE:Skirt
;WIDTH:0.5
G1 F3000
G1 X61.535 Y28.67 E.09446
G1 X62.521 Y27.314 E.06055
G1 X64.318 Y25.412 E.09447
G1 X66.39 Y23.815 E.09447
G1 X68.67 Y22.57 E.09381
G1 X69.546 Y22.206 E.03423
G1 X71.151 Y21.683 E.06096
G1 X73.723 Y21.201 E.09447
G1 X75.5 Y21.094 E.06427
G1 X145.338 Y21.127 E2.52158
G1 X147.88 Y21.454 E.09253
G1 X150.443 Y22.201 E.09641
G1 X152.807 Y23.323 E.09447
G1 X153.61 Y23.815 E.03399
G1 X155.682 Y25.412 E.09446
G1 X157.479 Y27.313 E.09447
G1 X158.957 Y29.473 E.09447
G1 X160.079 Y31.837 E.09446
G1 X160.597 Y33.431 E.06054
G1 X161.079 Y36.003 E.09447
G1 X161.186 Y37.78 E.06428
G1 X161.186 Y182.22 E5.21515
G1 X161.079 Y183.997 E.06428
G1 X160.816 Y185.653 E.06054
G1 X160.597 Y186.569 E.03399
G1 X159.718 Y189.033 E.09447
G1 X158.465 Y191.33 E.09447
G1 X157.479 Y192.687 E.06054
G1 X155.682 Y194.588 E.09446
G1 X153.61 Y196.185 E.09447
G1 X151.329 Y197.43 E.09382
G1 X150.454 Y197.794 E.03423
G1 X148.849 Y198.317 E.06096
G1 X146.277 Y198.799 E.09447
G1 X144.5 Y198.906 E.06428
G1 X75.5 Y198.906 E2.49131
G1 X73.723 Y198.799 E.06428
G1 X72.067 Y198.537 E.06054
G1 X71.151 Y198.317 E.03399
G1 X68.687 Y197.438 E.09447
G1 X66.39 Y196.185 E.09447
G1 X65.033 Y195.199 E.06055
G1 X63.132 Y193.402 E.09446
G1 X61.535 Y191.33 E.09447
G1 X60.29 Y189.049 E.09382
G1 X59.403 Y186.569 E.09512
G1 X58.921 Y183.997 E.09447
G1 X58.847 Y183.058 E.03399
G1 X58.814 Y37.78 E5.24542
G1 X58.921 Y36.003 E.06428
G1 X59.183 Y34.347 E.06054
G1 X59.403 Y33.431 E.03399
G1 X60.268 Y31.004 E.09303
G1 X60.698 Y31.158 F12000
G1 F3000
G1 X60.704 Y31.142 E.00063
G1 X61.925 Y28.909 E.09188
G1 X62.868 Y27.61 E.05796
G1 X64.614 Y25.759 E.09188
G1 X66.629 Y24.205 E.09188
G1 X68.846 Y22.992 E.09124
G1 X69.721 Y22.628 E.03423
G1 X71.258 Y22.128 E.05835
G1 X73.759 Y21.657 E.09188
G1 X75.5 Y21.551 E.06298
G1 X145.302 Y21.583 E2.52029
G1 X147.775 Y21.899 E.08999
G1 X150.268 Y22.624 E.09377
G1 X152.568 Y23.713 E.09188
G1 X153.371 Y24.205 E.03399
G1 X155.385 Y25.759 E.09187
G1 X157.132 Y27.61 E.09188
G1 X158.567 Y29.712 E.09189
G1 X159.656 Y32.012 E.09187
G1 X160.152 Y33.538 E.05795
G1 X160.623 Y36.039 E.09188
G1 X160.729 Y37.78 E.06298
G1 X160.729 Y182.22 E5.21515
G1 X160.623 Y183.961 E.06298
G1 X160.372 Y185.546 E.05795
G1 X160.152 Y186.462 E.03399
G1 X159.296 Y188.858 E.09188
G1 X158.075 Y191.091 E.09188
G1 X157.132 Y192.39 E.05795
G1 X155.386 Y194.24 E.09187
G1 X153.371 Y195.795 E.09188
G1 X151.154 Y197.008 E.09124
G1 X150.279 Y197.372 E.03423
G1 X148.742 Y197.872 E.05835
G1 X146.241 Y198.343 E.09188
G1 X144.5 Y198.449 E.06298
G1 X75.5 Y198.449 E2.49131
G1 X73.759 Y198.343 E.06298
G1 X72.174 Y198.092 E.05795
G1 X71.258 Y197.872 E.03399
G1 X68.862 Y197.016 E.09188
G1 X66.629 Y195.795 E.09188
G1 X65.33 Y194.852 E.05796
G1 X63.48 Y193.106 E.09187
G1 X61.925 Y191.091 E.09188
G1 X60.712 Y188.874 E.09124
G1 X59.848 Y186.462 E.09251
G1 X59.628 Y185.546 E.03399
G1 X59.303 Y183.022 E.09188
G1 X59.271 Y37.78 E5.24413
G1 X59.377 Y36.039 E.06298
G1 X59.628 Y34.454 E.05795
G1 X59.848 Y33.538 E.03399
G1 X60.685 Y31.196 E.08981
; OBJECT_ID: 71
; printing object DisplayCase_v1000_simple.STL id:8243122236320399616 copy 0
G1 E-.7 F2400
;WIPE_START
G1 F3000
G1 X60.704 Y31.142 E-.01635
G1 X61.156 Y30.315 E-.26865
;WIPE_END
G1 E-.015 F2400
G1 Z.4 F12000
G1 X66.031 Y33.402 Z.4
G1 Z.2
G1 E1 F2400
;TYPE:Brim
G1 F1500
G1 X66.044 Y33.37 E.00128
G1 X66.361 Y32.746 E.02525
G1 X66.851 Y31.945 E.03391
G1 X67.261 Y31.378 E.02525
G1 X67.87 Y30.663 E.03391
G1 X68.364 Y30.168 E.02525
G1 X69.077 Y29.557 E.03391
G1 X69.642 Y29.146 E.02525
G1 X70.437 Y28.657 E.03368
G1 X71.055 Y28.341 E.02508
G1 X71.928 Y27.977 E.03414
G1 X72.597 Y27.758 E.02542
G1 X73.51 Y27.538 E.03391
G1 X74.201 Y27.427 E.02525
G1 X75.141 Y27.352 E.03407
G1 X75.497 Y27.338 E.01284
G1 X144.503 Y27.338 E2.49156
G1 X144.853 Y27.352 E.01263
G1 X145.772 Y27.424 E.03327
G1 X146.452 Y27.531 E.02487
G1 X147.372 Y27.75 E.03414
G1 X148.042 Y27.966 E.02542
G1 X148.91 Y28.324 E.03391
G1 X149.534 Y28.641 E.02525
G1 X150.335 Y29.131 E.03391
G1 X150.902 Y29.541 E.02525
G1 X151.617 Y30.15 E.03391
G1 X152.112 Y30.644 E.02525
G1 X152.723 Y31.357 E.03391
G1 X153.134 Y31.922 E.02525
G1 X153.626 Y32.723 E.03391
G1 X153.944 Y33.345 E.02525
G1 X154.305 Y34.212 E.03391
G1 X154.522 Y34.877 E.02525
G1 X154.742 Y35.79 E.03391
G1 X154.853 Y36.481 E.02525
G1 X154.928 Y37.421 E.03407
G1 X154.942 Y37.777 E.01284
G1 X154.942 Y182.212 E5.21499
G1 X154.855 Y183.498 E.04653
G1 X154.747 Y184.183 E.02505
G1 X154.529 Y185.097 E.03391
G1 X154.314 Y185.762 E.02525
G1 X153.956 Y186.63 E.03391
G1 X153.639 Y187.254 E.02525
G1 X153.149 Y188.055 E.03391
G1 X152.739 Y188.622 E.02525
G1 X152.13 Y189.337 E.03391
G1 X151.636 Y189.832 E.02525
G1 X150.923 Y190.443 E.03391
G1 X150.358 Y190.854 E.02525
G1 X149.563 Y191.343 E.03368
G1 X148.945 Y191.659 E.02508
G1 X148.072 Y192.023 E.03414
G1 X147.403 Y192.242 E.02541
G1 X146.49 Y192.462 E.03391
G1 X145.799 Y192.573 E.02525
G1 X144.859 Y192.648 E.03407
G1 X144.503 Y192.662 E.01284
G1 X75.508 Y192.662 E2.49115
G1 X74.222 Y192.575 E.04653
G1 X73.537 Y192.467 E.02505
G1 X72.629 Y192.251 E.03368
G1 X71.968 Y192.037 E.02508
G1 X71.094 Y191.678 E.03414
G1 X70.466 Y191.359 E.02541
G1 X69.665 Y190.869 E.03391
G1 X69.098 Y190.459 E.02525
G1 X68.383 Y189.85 E.03391
G1 X67.888 Y189.356 E.02525
G1 X67.277 Y188.643 E.03391
G1 X66.866 Y188.078 E.02525
G1 X66.377 Y187.283 E.03368
G1 X66.061 Y186.665 E.02508
G1 X65.697 Y185.792 E.03414
G1 X65.478 Y185.123 E.02542
G1 X65.258 Y184.21 E.03391
G1 X65.148 Y183.521 E.02521
G1 X65.058 Y182.22 E.04707
G1 X65.058 Y37.788 E5.21487
G1 X65.145 Y36.502 E.04653
G1 X65.253 Y35.817 E.02505
G1 X65.471 Y34.903 E.03391
G1 X65.686 Y34.238 E.02525
G1 X66.016 Y33.439 E.03119
G1 X66.438 Y33.614 F12000
G1 F1500
G1 X66.458 Y33.565 E.00188
G1 X66.763 Y32.965 E.02434
G1 X67.229 Y32.203 E.03223
G1 X67.624 Y31.657 E.02434
G1 X68.203 Y30.978 E.03222
G1 X68.671 Y30.508 E.02395
G1 X69.357 Y29.92 E.03261
G1 X69.902 Y29.523 E.02434
G1 X70.657 Y29.059 E.032
G1 X71.243 Y28.758 E.02379
G1 X72.082 Y28.408 E.03284
G1 X72.717 Y28.2 E.02411
G1 X73.605 Y27.985 E.033
G1 X74.26 Y27.881 E.02395
G1 X75.166 Y27.809 E.0328
G1 X75.509 Y27.795 E.01238
G1 X144.497 Y27.795 E2.4909
G1 X145.713 Y27.878 E.044
G1 X146.359 Y27.979 E.02359
G1 X147.244 Y28.189 E.03285
G1 X147.89 Y28.397 E.0245
G1 X148.714 Y28.738 E.03222
G1 X149.306 Y29.038 E.02395
G1 X150.077 Y29.509 E.03261
G1 X150.623 Y29.904 E.02434
G1 X151.31 Y30.49 E.03261
G1 X151.78 Y30.959 E.02395
G1 X152.36 Y31.637 E.03223
G1 X152.751 Y32.173 E.02395
G1 X153.224 Y32.942 E.03261
G1 X153.531 Y33.542 E.02434
G1 X153.878 Y34.376 E.03261
G1 X154.083 Y35.007 E.02395
G1 X154.292 Y35.875 E.03222
G1 X154.399 Y36.54 E.02434
G1 X154.472 Y37.451 E.033
G1 X154.485 Y37.789 E.01218
G1 X154.485 Y182.192 E5.21384
G1 X154.401 Y183.441 E.04519
G1 X154.297 Y184.1 E.02409
G1 X154.087 Y184.979 E.03262
G1 X153.883 Y185.609 E.02395
G1 X153.542 Y186.434 E.03222
G1 X153.237 Y187.036 E.02434
G1 X152.771 Y187.797 E.03222
G1 X152.376 Y188.343 E.02434
G1 X151.797 Y189.022 E.03223
G1 X151.329 Y189.492 E.02395
G1 X150.643 Y190.08 E.03261
G1 X150.098 Y190.477 E.02434
G1 X149.343 Y190.941 E.03199
G1 X148.757 Y191.242 E.02379
G1 X147.918 Y191.592 E.03284
G1 X147.283 Y191.8 E.02411
G1 X146.405 Y192.012 E.03261
G1 X145.75 Y192.117 E.02395
G1 X144.829 Y192.192 E.03339
G1 X144.491 Y192.205 E.01218
G1 X75.528 Y192.205 E2.49
G1 X74.279 Y192.121 E.04519
G1 X73.62 Y192.017 E.02408
G1 X72.758 Y191.812 E.032
G1 X72.131 Y191.609 E.02379
G1 X71.29 Y191.264 E.03284
G1 X70.684 Y190.957 E.0245
G1 X69.923 Y190.492 E.03222
G1 X69.377 Y190.096 E.02434
G1 X68.698 Y189.517 E.03222
G1 X68.228 Y189.049 E.02395
G1 X67.64 Y188.363 E.03261
G1 X67.243 Y187.818 E.02434
G1 X66.779 Y187.063 E.032
G1 X66.478 Y186.477 E.02379
G1 X66.128 Y185.638 E.03284
G1 X65.92 Y185.003 E.02411
G1 X65.708 Y184.125 E.03261
G1 X65.603 Y183.475 E.02379
G1 X65.515 Y182.2 E.04615
G1 X65.515 Y37.808 E5.21341
G1 X65.599 Y36.559 E.04519
M73 P2 R104
G1 X65.703 Y35.9 E.02408
G1 X65.913 Y35.021 E.03262
G1 X66.117 Y34.39 E.02395
G1 X66.423 Y33.65 E.0289
G1 X66.845 Y33.825 F12000
G1 F1500
G1 X66.872 Y33.761 E.00248
G1 X67.165 Y33.183 E.02343
G1 X67.606 Y32.461 E.03054
G1 X67.987 Y31.936 E.02343
G1 X68.536 Y31.292 E.03055
G1 X68.978 Y30.847 E.02266
G1 X69.636 Y30.282 E.03131
G1 X70.161 Y29.9 E.02343
G1 X70.876 Y29.46 E.03032
G1 X71.431 Y29.176 E.0225
G1 X72.237 Y28.839 E.03154
G1 X72.837 Y28.642 E.0228
G1 X73.7 Y28.433 E.03208
G1 X74.32 Y28.335 E.02265
G1 X75.191 Y28.265 E.03153
G1 X75.52 Y28.252 E.01192
G1 X144.477 Y28.252 E2.48974
G1 X145.656 Y28.332 E.04267
G1 X146.265 Y28.427 E.02226
G1 X147.115 Y28.628 E.03155
G1 X147.737 Y28.829 E.02358
G1 X148.519 Y29.152 E.03054
G1 X149.079 Y29.435 E.02266
G1 X149.819 Y29.886 E.03131
G1 X150.344 Y30.267 E.02342
G1 X151.004 Y30.83 E.03131
G1 X151.448 Y31.274 E.02265
G1 X151.998 Y31.916 E.03055
G1 X152.368 Y32.423 E.02266
G1 X152.823 Y33.162 E.03131
G1 X153.118 Y33.739 E.02342
G1 X153.45 Y34.54 E.03131
G1 X153.644 Y35.137 E.02266
G1 X153.843 Y35.959 E.03054
G1 X153.945 Y36.6 E.02343
G1 X154.015 Y37.476 E.03172
G1 X154.028 Y182.172 E5.2244
G1 X153.947 Y183.384 E.04384
G1 X153.847 Y184.016 E.02312
G1 X153.645 Y184.86 E.03132
G1 X153.451 Y185.457 E.02265
G1 X153.129 Y186.239 E.03055
G1 X152.835 Y186.817 E.02343
G1 X152.394 Y187.539 E.03054
G1 X152.013 Y188.064 E.02343
G1 X151.464 Y188.708 E.03055
G1 X151.022 Y189.153 E.02265
G1 X150.364 Y189.718 E.03131
G1 X149.839 Y190.1 E.02343
G1 X149.124 Y190.54 E.03032
G1 X148.569 Y190.824 E.0225
G1 X147.763 Y191.161 E.03154
G1 X147.163 Y191.358 E.0228
G1 X146.32 Y191.563 E.03131
G1 X145.701 Y191.662 E.02265
G1 X144.804 Y191.735 E.03249
G1 X75.548 Y191.748 E2.50056
G1 X74.336 Y191.667 E.04385
G1 X73.704 Y191.567 E.02312
G1 X72.887 Y191.372 E.03033
G1 X72.293 Y191.182 E.0225
G1 X71.485 Y190.85 E.03154
G1 X70.903 Y190.555 E.02358
G1 X70.181 Y190.114 E.03053
G1 X69.656 Y189.733 E.02344
G1 X69.012 Y189.184 E.03054
G1 X68.567 Y188.742 E.02265
G1 X68.002 Y188.084 E.03131
G1 X67.62 Y187.559 E.02343
G1 X67.18 Y186.844 E.03032
G1 X66.896 Y186.289 E.0225
G1 X66.559 Y185.483 E.03154
G1 X66.362 Y184.883 E.0228
G1 X66.157 Y184.04 E.03131
G1 X66.059 Y183.429 E.02237
G1 X65.972 Y182.179 E.04523
G1 X65.972 Y37.828 E5.21195
G1 X66.053 Y36.616 E.04384
G1 X66.153 Y35.984 E.02312
G1 X66.355 Y35.14 E.03132
G1 X66.549 Y34.543 E.02266
G1 X66.83 Y33.862 E.02662
G1 X67.253 Y34.036 F12000
G1 F1500
G1 X67.285 Y33.957 E.00308
G1 X67.568 Y33.401 E.02252
G1 X67.984 Y32.719 E.02885
G1 X68.35 Y32.214 E.02252
G1 X68.869 Y31.606 E.02887
G1 X69.286 Y31.186 E.02136
G1 X69.916 Y30.644 E.03
G1 X70.42 Y30.277 E.02251
G1 X71.096 Y29.862 E.02866
G1 X71.619 Y29.593 E.02122
G1 X72.391 Y29.269 E.03024
G1 X72.957 Y29.083 E.02148
G1 X73.795 Y28.881 E.03115
G1 X74.379 Y28.789 E.02135
G1 X75.215 Y28.722 E.03028
G1 X144.466 Y28.71 E2.50037
G1 X145.599 Y28.787 E.04101
G1 X146.172 Y28.875 E.02092
G1 X146.987 Y29.068 E.03024
G1 X147.584 Y29.26 E.02266
G1 X148.323 Y29.565 E.02886
G1 X148.851 Y29.832 E.02136
G1 X149.561 Y30.264 E.03
G1 X150.066 Y30.63 E.0225
G1 X150.697 Y31.17 E.03
G1 X151.115 Y31.588 E.02136
G1 X151.636 Y32.196 E.0289
G1 X151.985 Y32.674 E.02136
G1 X152.421 Y33.381 E.03
G1 X152.705 Y33.936 E.0225
G1 X153.023 Y34.704 E.03
G1 X153.205 Y35.267 E.02136
G1 X153.393 Y36.044 E.02887
G1 X153.491 Y36.66 E.02252
G1 X153.557 Y37.489 E.03002
G1 X153.571 Y182.152 E5.22322
G1 X153.492 Y183.327 E.0425
G1 X153.397 Y183.933 E.02214
G1 X153.203 Y184.741 E.03001
G1 X153.02 Y185.303 E.02136
G1 X152.715 Y186.043 E.02887
G1 X152.432 Y186.599 E.02252
G1 X152.016 Y187.281 E.02885
G1 X151.65 Y187.786 E.02252
G1 X151.131 Y188.395 E.02887
G1 X150.714 Y188.814 E.02136
G1 X150.084 Y189.356 E.03
G1 X149.58 Y189.723 E.02251
G1 X148.904 Y190.138 E.02866
G1 X148.381 Y190.407 E.02122
G1 X147.609 Y190.731 E.03025
G1 X147.043 Y190.917 E.02149
G1 X146.235 Y191.113 E.03001
G1 X145.652 Y191.207 E.02135
G1 X144.791 Y191.277 E.03117
G1 X75.568 Y191.291 E2.49938
G1 X74.393 Y191.212 E.0425
G1 X73.787 Y191.117 E.02215
G1 X73.015 Y190.933 E.02867
G1 X72.455 Y190.754 E.02122
G1 X71.681 Y190.436 E.03022
G1 X71.121 Y190.152 E.02266
G1 X70.439 Y189.736 E.02884
G1 X69.934 Y189.37 E.02253
G1 X69.326 Y188.851 E.02887
G1 X68.906 Y188.434 E.02136
G1 X68.364 Y187.804 E.03
G1 X67.997 Y187.3 E.02251
G1 X67.582 Y186.624 E.02866
G1 X67.313 Y186.101 E.02122
G1 X66.989 Y185.329 E.03024
G1 X66.803 Y184.763 E.02149
G1 X66.607 Y183.955 E.03001
G1 X66.514 Y183.383 E.02095
G1 X66.429 Y182.158 E.04431
G1 X66.429 Y37.848 E5.21049
G1 X66.508 Y36.673 E.0425
G1 X66.603 Y36.067 E.02214
G1 X66.797 Y35.259 E.03001
G1 X66.98 Y34.697 E.02136
G1 X67.237 Y34.073 E.02435
G1 X67.66 Y34.248 F12000
G1 F1500
G1 X67.699 Y34.153 E.00368
G1 X67.97 Y33.62 E.02161
G1 X68.362 Y32.978 E.02717
G1 X68.713 Y32.493 E.02161
G1 X69.202 Y31.919 E.02721
G1 X69.593 Y31.525 E.02007
G1 X70.196 Y31.007 E.02868
G1 X70.679 Y30.654 E.02159
G1 X71.316 Y30.263 E.027
G1 X71.807 Y30.01 E.01994
G1 X72.546 Y29.7 E.02895
G1 X73.077 Y29.525 E.02016
G1 X73.89 Y29.329 E.03022
G1 X74.438 Y29.243 E.02004
G1 X75.228 Y29.179 E.0286
G1 X144.455 Y29.167 E2.49952
G1 X145.543 Y29.241 E.03936
G1 X146.079 Y29.323 E.01958
G1 X146.859 Y29.507 E.02892
G1 X147.432 Y29.692 E.02174
G1 X148.128 Y29.979 E.02719
G1 X148.624 Y30.23 E.02007
G1 X149.303 Y30.642 E.02868
G1 X149.787 Y30.993 E.02158
G1 X150.39 Y31.509 E.02868
G1 X150.783 Y31.903 E.02007
G1 X151.274 Y32.476 E.02725
G1 X151.602 Y32.925 E.02007
G1 X152.02 Y33.601 E.02868
G1 X152.292 Y34.133 E.02158
G1 X152.595 Y34.867 E.02868
G1 X152.766 Y35.396 E.02007
G1 X152.943 Y36.128 E.02721
G1 X153.037 Y36.72 E.02161
G1 X153.1 Y37.502 E.02833
G1 X153.114 Y182.132 E5.22204
G1 X153.038 Y183.27 E.04116
G1 X152.947 Y183.849 E.02116
G1 X152.761 Y184.622 E.02869
G1 X152.589 Y185.15 E.02007
G1 X152.301 Y185.847 E.02721
G1 X152.03 Y186.38 E.02161
G1 X151.638 Y187.022 E.02717
G1 X151.287 Y187.507 E.02161
G1 X150.798 Y188.081 E.02721
G1 X150.407 Y188.475 E.02007
G1 X149.804 Y188.993 E.02868
G1 X149.321 Y189.346 E.02159
G1 X148.684 Y189.737 E.027
G1 X148.193 Y189.99 E.01994
G1 X147.454 Y190.3 E.02895
G1 X146.923 Y190.475 E.02019
G1 X146.15 Y190.663 E.02871
G1 X145.602 Y190.752 E.02005
G1 X144.778 Y190.82 E.02985
G1 X75.588 Y190.834 E2.49819
