; HEADER_BLOCK_START
; generated by Creality_Print V7.1.1.4472 on 2026-06-29 at 19:14:16
; total layer number: 50
; filament_density: 1.24
; filament_diameter: 1.75
; max_z_height: 10.00
; creality_uuid: a1674ae3-5e0c-4da5-92d8-2d5808943567
; HEADER_BLOCK_END

; MINX = 63.18
; MINY = 79.10
; MINZ = 0.00
; MAXX = 156.82
; MAXY = 140.90
; MAXZ = 10.00

; multicolor_method = 0 
; THUMBNAIL_BLOCK_START

;
; THUMBNAIL_BLOCK_END

; external perimeters extrusion width = 0.42mm
; perimeters extrusion width = 0.45mm
; infill extrusion width = 0.45mm
; solid infill extrusion width = 0.45mm
; top infill extrusion width = 0.42mm
; support material extrusion width = 0.38mm
; first layer extrusion width = 0.50mm

; EXECUTABLE_BLOCK_START
M73 P0 R27
M201 X2000 Y2000 Z100 E2000
M203 X250 Y250 Z30 E100
M204 P2000 R1000 T2000
M205 X12.00 Y12.00 Z0.40 E5.00 ; sets the jerk limits, mm/sec
M106 S0
M106 P2 S0
; max_print_temp = 80,205
;TYPE:Custom
G90 ; use absolute coordinates
M83 ; extruder relative mode
M104 S150 ; set temporary nozzle temp to prevent oozing during homing
M140 S80 ; set final bed temp
G4 S30 ; allow partial nozzle warmup
G28 ; home all axis and restore leveling
G1 Z50 F240
G1 X2.0 Y10 F3000
M104 S180 ; set final nozzle temp
M190 S80 ; wait for bed temp to stabilize
M109 S180 ; wait for nozzle temp to stabilize
M73 P2 R26
G1 Z0.28 F240
G92 E0
G1 X2.0 Y140 E10 F1500 ; prime the nozzle
M73 P3 R26
G1 X2.3 Y140 F5000
G92 E0
G1 X2.3 Y10 E10 F1200 ; prime the nozzle
G92 E0
G90
G21
M83 ; use relative distances for extrusion
; filament start gcode
G1 E-1 F2400
M73 P4 R26
G1 Z.2 F12000
M106 S0
;LAYER_CHANGE
;:0.2
;HEIGHT:0.2
;BEFORE_LAYER_CHANGE
;0.2
G92 E0
;TIME_ELAPSED:121.151993
;_SET_FAN_SPEED_CHANGING_LAYER
M204 S500
M205 X9 Y9
G1 X58.701 Y72.131 Z.4 F12000
G1 Z.2
G1 E1 F2400
;TYPE:Skirt
;WIDTH:0.5
G1 F3000
G1 X60.873 Y70.643 E.09507
G1 X63.237 Y69.521 E.09447
G1 X65.747 Y68.783 E.09447
G1 X68.342 Y68.447 E.09447
G1 X151.658 Y68.447 E3.00824
G1 X154.228 Y68.779 E.09353
G1 X156.763 Y69.521 E.0954
G1 X159.127 Y70.643 E.09447
G1 X161.286 Y72.12 E.09447
G1 X162.002 Y72.732 E.03399
G1 X163.8 Y74.634 E.09447
G1 X165.277 Y76.793 E.09447
G1 X166.038 Y78.287 E.06054
G1 X166.917 Y80.751 E.09446
G1 X167.399 Y83.323 E.09447
G1 X167.506 Y85.1 E.06428
G1 X167.506 Y134.9 E1.79808
G1 X167.399 Y136.677 E.06428
G1 X166.917 Y139.249 E.09447
G1 X166.038 Y141.713 E.09447
G1 X165.277 Y143.207 E.06054
G1 X163.8 Y145.366 E.09447
G1 X162.021 Y147.25 E.09354
G1 X161.299 Y147.869 E.03433
G1 X159.127 Y149.357 E.09506
G1 X156.763 Y150.479 E.09447
G1 X154.253 Y151.217 E.09447
G1 X151.658 Y151.553 E.09447
G1 X69.18 Y151.586 E2.97796
G1 X67.403 Y151.479 E.06428
G1 X65.747 Y151.217 E.06054
G1 X63.309 Y150.504 E.0917
G1 X62.412 Y150.137 E.035
G1 X60.873 Y149.357 E.06229
G1 X58.714 Y147.879 E.09447
G1 X56.812 Y146.082 E.09447
G1 X56.2 Y145.366 E.03399
G1 X54.723 Y143.207 E.09447
G1 X53.601 Y140.843 E.09447
G1 X52.863 Y138.333 E.09447
G1 X52.527 Y135.738 E.09447
G1 X52.494 Y85.1 E1.82835
G1 X52.601 Y83.323 E.06428
G1 X52.863 Y81.667 E.06054
M73 P4 R25
G1 X53.083 Y80.751 E.03399
G1 X53.962 Y78.287 E.09447
G1 X54.723 Y76.793 E.06054
G1 X56.2 Y74.634 E.09447
G1 X57.979 Y72.75 E.09353
G1 X58.671 Y72.157 E.03289
G1 X58.968 Y72.504 F12000
G1 F3000
G1 X58.998 Y72.478 E.00144
G1 X61.112 Y71.033 E.09245
G1 X63.412 Y69.944 E.09188
G1 X65.854 Y69.228 E.09188
G1 X67.439 Y68.977 E.05795
G1 X69.18 Y68.871 E.06298
G1 X151.623 Y68.903 E2.97667
G1 X154.122 Y69.224 E.09097
G1 X156.588 Y69.944 E.09278
G1 X158.888 Y71.033 E.09188
G1 X159.691 Y71.525 E.03399
G1 X161.706 Y73.079 E.09188
G1 X163.452 Y74.93 E.09188
G1 X164.887 Y77.032 E.09188
G1 X165.616 Y78.462 E.05795
G1 X166.472 Y80.858 E.09188
G1 X166.943 Y83.359 E.09188
G1 X167.049 Y85.1 E.06298
G1 X167.049 Y134.9 E1.79808
G1 X166.943 Y136.641 E.06298
G1 X166.472 Y139.142 E.09188
G1 X165.616 Y141.538 E.09188
G1 X164.887 Y142.968 E.05795
G1 X163.452 Y145.07 E.09188
G1 X161.724 Y146.903 E.09097
G1 X161.002 Y147.522 E.03433
G1 X158.888 Y148.967 E.09245
G1 X156.588 Y150.056 E.09188
G1 X154.146 Y150.772 E.09188
G1 X152.561 Y151.023 E.05795
G1 X150.82 Y151.129 E.06298
G1 X69.18 Y151.129 E2.94769
G1 X67.439 Y151.023 E.06298
G1 X65.854 Y150.772 E.05795
G1 X63.482 Y150.081 E.08919
G1 X62.585 Y149.714 E.035
G1 X61.112 Y148.967 E.05963
G1 X59.01 Y147.532 E.09188
G1 X57.16 Y145.786 E.09188
G1 X56.548 Y145.07 E.03399
G1 X55.113 Y142.968 E.09188
G1 X54.024 Y140.668 E.09188
G1 X53.308 Y138.226 E.09188
G1 X52.983 Y135.703 E.09188
G1 X52.951 Y85.1 E1.82705
G1 X53.057 Y83.359 E.06298
M73 P5 R25
G1 X53.308 Y81.774 E.05795
G1 X54.024 Y79.332 E.09188
G1 X54.384 Y78.462 E.03399
G1 X55.113 Y77.032 E.05795
G1 X56.548 Y74.93 E.09188
G1 X58.276 Y73.097 E.09097
G1 X58.938 Y72.53 E.03144
; OBJECT_ID: 71
; printing object Inside_Nano_Support_v0007.STL id:0 copy 0
G1 E-.7 F2400
;WIPE_START
G1 F3000
G1 X58.998 Y72.478 E-.0228
G1 X59.758 Y71.959 E-.2622
;WIPE_END
G1 E-.015 F2400
G1 Z.4 F12000
G1 X62.708 Y76.92 Z.4
G1 Z.2
G1 E1 F2400
;TYPE:Brim
G1 F1500
G1 X62.752 Y76.882 E.0021
G1 X63.322 Y76.466 E.02549
G1 X64.123 Y75.974 E.03391
G1 X64.745 Y75.656 E.02525
G1 X65.612 Y75.295 E.03391
G1 X66.277 Y75.078 E.02525
G1 X67.19 Y74.858 E.03391
G1 X67.879 Y74.748 E.0252
G1 X69.18 Y74.658 E.04707
G1 X150.823 Y74.658 E2.94782
G1 X151.173 Y74.672 E.01263
G1 X152.089 Y74.744 E.03317
G1 X152.768 Y74.85 E.0248
G1 X153.69 Y75.069 E.03424
G1 X154.362 Y75.286 E.02549
G1 X155.23 Y75.644 E.03391
G1 X155.854 Y75.961 E.02525
G1 X156.655 Y76.451 E.03391
G1 X157.222 Y76.861 E.02525
G1 X157.937 Y77.47 E.03391
G1 X158.432 Y77.964 E.02525
G1 X159.043 Y78.677 E.03391
G1 X159.454 Y79.242 E.02525
G1 X159.946 Y80.043 E.03391
G1 X160.264 Y80.665 E.02525
G1 X160.625 Y81.533 E.03391
G1 X160.842 Y82.197 E.02524
G1 X161.06 Y83.101 E.03357
G1 X161.17 Y83.784 E.02496
G1 X161.262 Y85.1 E.04764
G1 X161.262 Y134.895 E1.79792
G1 X161.249 Y135.244 E.01258
G1 X161.175 Y136.177 E.03379
G1 X161.067 Y136.863 E.02509
G1 X160.849 Y137.777 E.03391
G1 X160.634 Y138.442 E.02525
G1 X160.276 Y139.31 E.03391
G1 X159.959 Y139.934 E.02525
G1 X159.469 Y140.735 E.03391
G1 X159.059 Y141.302 E.02525
G1 X158.456 Y142.009 E.03357
G1 X157.967 Y142.5 E.02501
G1 X157.248 Y143.118 E.03424
G1 X156.678 Y143.534 E.02549
G1 X155.878 Y144.026 E.03391
G1 X155.255 Y144.344 E.02525
G1 X154.388 Y144.705 E.03391
G1 X153.723 Y144.922 E.02525
G1 X152.81 Y145.142 E.03391
G1 X152.12 Y145.252 E.0252
G1 X150.82 Y145.342 E.04707
G1 X69.188 Y145.342 E2.94741
G1 X67.902 Y145.255 E.04653
G1 X67.217 Y145.147 E.02505
G1 X66.312 Y144.931 E.03358
G1 X65.653 Y144.719 E.02501
G1 X64.776 Y144.358 E.03424
G1 X64.146 Y144.039 E.02549
G1 X63.345 Y143.549 E.03391
G1 X62.778 Y143.139 E.02525
G1 X62.063 Y142.53 E.03391
G1 X61.568 Y142.036 E.02525
G1 X60.957 Y141.323 E.03391
G1 X60.546 Y140.758 E.02525
G1 X60.054 Y139.957 E.03391
G1 X59.736 Y139.335 E.02525
G1 X59.375 Y138.468 E.03391
G1 X59.158 Y137.803 E.02525
G1 X58.938 Y136.89 E.03391
G1 X58.827 Y136.199 E.02525
G1 X58.738 Y134.903 E.0469
G1 X58.738 Y85.108 E1.79792
G1 X58.825 Y83.822 E.04653
G1 X58.933 Y83.137 E.02505
G1 X59.151 Y82.223 E.03391
G1 X59.366 Y81.558 E.02525
G1 X59.724 Y80.69 E.03391
G1 X60.041 Y80.066 E.02525
G1 X60.531 Y79.265 E.03391
G1 X60.941 Y78.698 E.02525
G1 X61.544 Y77.991 E.03357
G1 X62.033 Y77.5 E.02501
G1 X62.677 Y76.946 E.03069
G1 X62.976 Y77.293 F12000
G1 F1500
G1 X63.041 Y77.237 E.00309
G1 X63.582 Y76.843 E.02418
G1 X64.351 Y76.37 E.03261
G1 X64.942 Y76.069 E.02395
G1 X65.776 Y75.722 E.03261
G1 X66.407 Y75.517 E.02395
G1 X67.285 Y75.305 E.03261
G1 X67.937 Y75.202 E.02384
G1 X69.2 Y75.115 E.04571
G1 X150.817 Y75.115 E2.94685
G1 X152.03 Y75.198 E.0439
M73 P6 R25
G1 X152.674 Y75.298 E.02353
G1 X153.562 Y75.509 E.03295
G1 X154.21 Y75.717 E.02457
G1 X155.034 Y76.058 E.03222
G1 X155.636 Y76.363 E.02434
G1 X156.406 Y76.834 E.03261
G1 X156.943 Y77.224 E.02395
G1 X157.622 Y77.803 E.03222
G1 X158.1 Y78.279 E.02434
G1 X158.687 Y78.965 E.03261
G1 X159.077 Y79.502 E.02395
G1 X159.55 Y80.271 E.03261
G1 X159.851 Y80.862 E.02395
G1 X160.198 Y81.697 E.03261
G1 X160.403 Y82.327 E.02395
G1 X160.61 Y83.186 E.0319
G1 X160.715 Y83.842 E.024
G1 X160.805 Y85.121 E.04628
G1 X160.805 Y134.884 E1.79675
G1 X160.792 Y135.22 E.01213
G1 X160.72 Y136.129 E.03292
G1 X160.617 Y136.78 E.02381
G1 X160.41 Y137.648 E.03223
G1 X160.203 Y138.29 E.02434
G1 X159.862 Y139.114 E.03222
G1 X159.562 Y139.706 E.02395
G1 X159.091 Y140.477 E.03261
G1 X158.696 Y141.023 E.02434
G1 X158.123 Y141.695 E.0319
G1 X157.66 Y142.161 E.02372
G1 X156.959 Y142.763 E.03333
G1 X156.418 Y143.157 E.02418
G1 X155.649 Y143.63 E.03261
G1 X155.058 Y143.931 E.02395
G1 X154.224 Y144.278 E.03261
G1 X153.593 Y144.483 E.02395
G1 X152.715 Y144.695 E.03261
G1 X152.063 Y144.798 E.02384
G1 X150.8 Y144.885 E.04571
G1 X69.208 Y144.885 E2.94595
G1 X67.959 Y144.801 E.04519
G1 X67.3 Y144.697 E.02408
G1 X66.441 Y144.492 E.0319
G1 X65.815 Y144.291 E.02372
G1 X64.961 Y143.94 E.03333
G1 X64.364 Y143.637 E.02418
G1 X63.603 Y143.172 E.03222
G1 X63.057 Y142.776 E.02435
G1 X62.378 Y142.197 E.03222
G1 X61.908 Y141.729 E.02395
G1 X61.313 Y141.035 E.033
G1 X60.923 Y140.498 E.02395
G1 X60.45 Y139.729 E.03261
G1 X60.149 Y139.138 E.02395
G1 X59.802 Y138.304 E.03261
G1 X59.597 Y137.673 E.02395
G1 X59.385 Y136.795 E.03261
G1 X59.282 Y136.141 E.02389
G1 X59.195 Y134.892 E.0452
G1 X59.195 Y85.128 E1.7968
G1 X59.279 Y83.879 E.04519
G1 X59.383 Y83.22 E.02409
G1 X59.59 Y82.352 E.03223
G1 X59.794 Y81.721 E.02395
G1 X60.142 Y80.876 E.033
G1 X60.443 Y80.284 E.02395
G1 X60.909 Y79.523 E.03223
G1 X61.304 Y78.977 E.02434
G1 X61.877 Y78.305 E.0319
G1 X62.34 Y77.839 E.02372
G1 X62.945 Y77.319 E.0288
G1 X63.243 Y77.666 F12000
G1 F1500
G1 X63.32 Y77.599 E.00368
G1 X63.832 Y77.226 E.02287
G1 X64.571 Y76.772 E.03131
G1 X65.129 Y76.486 E.02266
G1 X65.93 Y76.154 E.03131
G1 X66.527 Y75.959 E.02265
G1 X67.37 Y75.755 E.03131
G1 X67.983 Y75.657 E.02243
G1 X69.221 Y75.572 E.0448
G1 X150.797 Y75.572 E2.94539
G1 X151.973 Y75.652 E.04257
G1 X152.581 Y75.746 E.02219
G1 X153.434 Y75.948 E.03164
G1 X154.057 Y76.149 E.02365
G1 X154.838 Y76.471 E.03052
G1 X155.417 Y76.765 E.02343
G1 X156.157 Y77.218 E.03131
G1 X156.664 Y77.587 E.02266
G1 X157.308 Y78.136 E.03054
G1 X157.768 Y78.594 E.02343
G1 X158.331 Y79.253 E.03131
G1 X158.7 Y79.761 E.02265
G1 X159.153 Y80.5 E.03132
G1 X159.438 Y81.059 E.02265
G1 X159.77 Y81.86 E.03132
G1 X159.964 Y82.457 E.02265
G1 X160.161 Y83.271 E.03022
G1 X160.261 Y83.9 E.02303
G1 X160.348 Y85.142 E.04492
G1 X160.335 Y135.195 E1.80724
G1 X160.265 Y136.08 E.03205
M73 P7 R25
G1 X160.167 Y136.696 E.02252
G1 X159.971 Y137.519 E.03056
G1 X159.771 Y138.137 E.02343
G1 X159.448 Y138.919 E.03054
G1 X159.165 Y139.479 E.02266
G1 X158.708 Y140.228 E.0317
G1 X158.333 Y140.744 E.02304
G1 X157.79 Y141.382 E.03023
G1 X157.344 Y141.83 E.02282
G1 X156.68 Y142.401 E.03163
G1 X156.168 Y142.774 E.02286
G1 X155.429 Y143.228 E.03131
G1 X154.871 Y143.514 E.02266
G1 X154.07 Y143.846 E.03131
G1 X153.473 Y144.041 E.02265
G1 X152.63 Y144.245 E.03131
G1 X152.017 Y144.343 E.02243
G1 X150.779 Y144.428 E.0448
G1 X69.228 Y144.428 E2.94449
G1 X68.004 Y144.345 E.04428
G1 X67.384 Y144.247 E.02268
G1 X66.569 Y144.053 E.03024
G1 X65.968 Y143.859 E.02282
G1 X65.157 Y143.526 E.03163
G1 X64.592 Y143.24 E.02287
G1 X63.852 Y142.788 E.03131
G1 X63.336 Y142.413 E.02305
G1 X62.692 Y141.864 E.03054
G1 X62.24 Y141.414 E.02304
G1 X61.676 Y140.755 E.0313
G1 X61.306 Y140.248 E.02265
G1 X60.852 Y139.509 E.03131
G1 X60.566 Y138.951 E.02265
G1 X60.234 Y138.15 E.03131
G1 X60.039 Y137.553 E.02265
G1 X59.835 Y136.71 E.03131
G1 X59.737 Y136.096 E.02248
G1 X59.653 Y134.872 E.04429
G1 X59.652 Y85.139 E1.79567
G1 X59.735 Y83.924 E.04395
G1 X59.833 Y83.304 E.02268
G1 X60.029 Y82.481 E.03056
G1 X60.225 Y81.873 E.02304
G1 X60.556 Y81.072 E.0313
G1 X60.84 Y80.512 E.02266
G1 X61.292 Y79.772 E.03132
G1 X61.667 Y79.256 E.02304
G1 X62.21 Y78.618 E.03023
G1 X62.656 Y78.17 E.02282
G1 X63.213 Y77.692 E.02651
G1 X63.511 Y78.039 F12000
G1 F1500
G1 X63.6 Y77.962 E.00427
G1 X64.082 Y77.609 E.02156
G1 X64.79 Y77.174 E.03
G1 X65.317 Y76.904 E.02136
G1 X66.084 Y76.585 E.03002
G1 X66.646 Y76.401 E.02136
G1 X67.454 Y76.205 E.03001
G1 X68.029 Y76.113 E.02101
G1 X69.241 Y76.029 E.04388
G1 X150.777 Y76.029 E2.94392
G1 X151.917 Y76.106 E.04125
G1 X152.488 Y76.195 E.02086
G1 X153.305 Y76.387 E.03033
G1 X153.904 Y76.58 E.02273
G1 X154.643 Y76.885 E.02883
G1 X155.199 Y77.167 E.02252
G1 X155.907 Y77.602 E.03
G1 X156.385 Y77.95 E.02136
G1 X156.994 Y78.468 E.02887
G1 X157.436 Y78.909 E.02251
G1 X157.975 Y79.541 E.03
G1 X158.322 Y80.019 E.02135
G1 X158.757 Y80.728 E.03002
G1 X159.025 Y81.256 E.02135
G1 X159.343 Y82.024 E.03002
G1 X159.525 Y82.587 E.02136
G1 X159.711 Y83.355 E.02855
G1 X159.807 Y83.959 E.02206
G1 X159.891 Y85.162 E.04356
G1 X159.878 Y135.183 E1.80604
G1 X159.81 Y136.031 E.03074
G1 X159.718 Y136.612 E.02123
G1 X159.532 Y137.39 E.02889
G1 X159.34 Y137.984 E.02252
G1 X159.035 Y138.723 E.02887
G1 X158.768 Y139.251 E.02136
G1 X158.324 Y139.979 E.03078
G1 X157.97 Y140.466 E.02173
G1 X157.457 Y141.068 E.02856
G1 X157.029 Y141.498 E.02192
G1 X156.4 Y142.038 E.02994
G1 X155.918 Y142.391 E.02155
G1 X155.21 Y142.826 E.03
G1 X154.683 Y143.096 E.02136
G1 X153.916 Y143.415 E.03002
G1 X153.354 Y143.599 E.02136
G1 X152.546 Y143.795 E.03001
G1 X151.971 Y143.887 E.02101
G1 X150.759 Y143.971 E.04388
G1 X69.248 Y143.971 E2.94303
G1 X68.049 Y143.89 E.04338
M73 P8 R25
G1 X67.467 Y143.797 E.02127
G1 X66.698 Y143.614 E.02857
G1 X66.12 Y143.428 E.02192
G1 X65.353 Y143.112 E.02994
G1 X64.82 Y142.843 E.02156
G1 X64.102 Y142.404 E.03039
G1 X63.614 Y142.05 E.02175
G1 X63.006 Y141.531 E.02887
G1 X62.571 Y141.099 E.02213
G1 X62.038 Y140.476 E.02961
G1 X61.689 Y139.998 E.02135
G1 X61.254 Y139.29 E.03002
G1 X60.984 Y138.763 E.02136
G1 X60.665 Y137.996 E.03002
G1 X60.481 Y137.434 E.02136
G1 X60.285 Y136.626 E.03001
G1 X60.193 Y136.05 E.02107
G1 X60.11 Y134.851 E.04338
G1 X60.11 Y85.149 E1.79453
G1 X60.19 Y83.969 E.04271
G1 X60.283 Y83.387 E.02127
G1 X60.468 Y82.609 E.02889
G1 X60.657 Y82.026 E.02213
G1 X60.97 Y81.268 E.02961
M73 P8 R24
G1 X61.237 Y80.74 E.02136
G1 X61.676 Y80.022 E.03041
G1 X62.03 Y79.534 E.02174
G1 X62.543 Y78.932 E.02856
G1 X62.971 Y78.502 E.02192
G1 X63.48 Y78.065 E.02423
G1 X63.778 Y78.411 F12000
G1 F1500
G1 X63.88 Y78.323 E.00487
G1 X64.333 Y77.992 E.02025
G1 X65.01 Y77.575 E.0287
G1 X65.504 Y77.322 E.02006
G1 X66.238 Y77.015 E.02872
G1 X66.766 Y76.842 E.02006
G1 X67.539 Y76.655 E.02872
G1 X68.075 Y76.569 E.01959
G1 X69.262 Y76.486 E.04296
G1 X150.757 Y76.486 E2.94246
G1 X151.861 Y76.561 E.03994
G1 X152.395 Y76.643 E.01952
G1 X153.177 Y76.827 E.02902
G1 X153.752 Y77.012 E.0218
G1 X154.447 Y77.299 E.02714
G1 X154.98 Y77.57 E.0216
G1 X155.657 Y77.985 E.02868
G1 X156.106 Y78.313 E.02007
G1 X156.68 Y78.801 E.02721
G1 X157.103 Y79.224 E.0216
G1 X157.619 Y79.828 E.02868
G1 X157.945 Y80.278 E.02005
G1 X158.36 Y80.957 E.02873
G1 X158.611 Y81.452 E.02005
G1 X158.915 Y82.187 E.02873
G1 X159.086 Y82.716 E.02007
G1 X159.261 Y83.44 E.02689
G1 X159.353 Y84.017 E.02109
G1 X159.434 Y85.183 E.0422
G1 X159.42 Y135.17 E1.80483
G1 X159.355 Y135.982 E.02944
G1 X159.268 Y136.528 E.01995
G1 X159.093 Y137.262 E.02723
G1 X158.908 Y137.831 E.02161
G1 X158.621 Y138.528 E.02721
G1 X158.371 Y139.024 E.02005
G1 X157.94 Y139.729 E.02985
G1 X157.607 Y140.187 E.02042
G1 X157.124 Y140.754 E.0269
G1 X156.713 Y141.167 E.02102
G1 X156.12 Y141.677 E.02826
G1 X155.667 Y142.008 E.02025
G1 X154.99 Y142.425 E.0287
G1 X154.496 Y142.678 E.02006
G1 X153.762 Y142.985 E.02872
G1 X153.234 Y143.158 E.02006
G1 X152.461 Y143.345 E.02872
G1 X151.925 Y143.431 E.01959
G1 X150.738 Y143.514 E.04296
G1 X69.268 Y143.514 E2.94157
G1 X68.095 Y143.434 E.04247
G1 X67.551 Y143.348 E.01986
G1 X66.826 Y143.174 E.02692
G1 X66.272 Y142.996 E.02102
G1 X65.548 Y142.698 E.02826
G1 X65.047 Y142.446 E.02025
G1 X64.351 Y142.02 E.02947
G1 X63.893 Y141.687 E.02044
G1 X63.32 Y141.198 E.02721
G1 X62.903 Y140.784 E.02122
G1 X62.4 Y140.196 E.02793
G1 X62.072 Y139.748 E.02006
G1 X61.655 Y139.07 E.02872
