; HEADER_BLOCK_START
; generated by Creality_Print V7.1.1.4472 on 2026-06-29 at 19:15:03
; total layer number: 65
; filament_density: 1.24
; filament_diameter: 1.75
; max_z_height: 13.00
; creality_uuid: c803a982-11ed-415e-af0a-5fa50ee185ac
; HEADER_BLOCK_END

; MINX = 85.75
; MINY = 91.00
; MINZ = 0.00
; MAXX = 134.25
; MAXY = 129.00
; MAXZ = 13.00

; multicolor_method = 0 
; THUMBNAIL_BLOCK_START

;
; THUMBNAIL_BLOCK_END

; external perimeters extrusion width = 0.42mm
; perimeters extrusion width = 0.45mm
; infill extrusion width = 0.45mm
; solid infill extrusion width = 0.45mm
; top infill extrusion width = 0.42mm
; support material extrusion width = 0.38mm
; first layer extrusion width = 0.50mm

; EXECUTABLE_BLOCK_START
M73 P0 R55
M201 X2000 Y2000 Z100 E2000
M203 X250 Y250 Z30 E100
M204 P2000 R1000 T2000
M205 X12.00 Y12.00 Z0.40 E5.00 ; sets the jerk limits, mm/sec
M106 S0
M106 P2 S0
; max_print_temp = 80,205
;TYPE:Custom
G90 ; use absolute coordinates
M83 ; extruder relative mode
M104 S150 ; set temporary nozzle temp to prevent oozing during homing
M140 S80 ; set final bed temp
G4 S30 ; allow partial nozzle warmup
G28 ; home all axis and restore leveling
G1 Z50 F240
G1 X2.0 Y10 F3000
M104 S180 ; set final nozzle temp
M190 S80 ; wait for bed temp to stabilize
M109 S180 ; wait for nozzle temp to stabilize
M73 P1 R54
G1 Z0.28 F240
G92 E0
G1 X2.0 Y140 E10 F1500 ; prime the nozzle
G1 X2.3 Y140 F5000
G92 E0
G1 X2.3 Y10 E10 F1200 ; prime the nozzle
G92 E0
G90
G21
M83 ; use relative distances for extrusion
; filament start gcode
G1 E-1 F2400
M73 P2 R54
G1 Z.2 F12000
M106 S0
;LAYER_CHANGE
;:0.2
;HEIGHT:0.2
;BEFORE_LAYER_CHANGE
;0.2
G92 E0
;TIME_ELAPSED:126.958054
;_SET_FAN_SPEED_CHANGING_LAYER
M204 S500
M205 X9 Y9
G1 X79.447 Y83.665 Z.4 F12000
G1 Z.2
G1 E1 F2400
;TYPE:Skirt
;WIDTH:0.5
G1 F3000
G1 X81.045 Y82.508 E.07123
G1 X82.824 Y81.654 E.07123
G1 X84.726 Y81.133 E.07123
G1 X86.098 Y80.963 E.0499
G1 X106.656 Y79.744 E.74358
G1 X108.204 Y79.783 E.0559
G1 X130.692 Y80.982 E.81311
G1 X132.589 Y81.33 E.06962
G1 X137.405 Y82.729 E.18107
G1 X139.169 Y83.573 E.07061
G1 X140.476 Y84.491 E.05767
G1 X141.775 Y85.737 E.06499
G1 X142.422 Y86.534 E.03706
G1 X143.264 Y87.858 E.05664
G1 X143.668 Y88.73 E.03471
G1 X144.142 Y90.257 E.05772
G1 X144.387 Y91.634 E.05052
G1 X144.528 Y93.144 E.05474
G1 X144.682 Y116.156 E.83089
G1 X144.544 Y117.911 E.06358
G1 X142.952 Y129.604 E.42606
G1 X142.546 Y131.27 E.06192
G1 X142.187 Y132.224 E.0368
G1 X141.251 Y133.958 E.07118
G1 X140.019 Y135.498 E.07118
G1 X138.533 Y136.793 E.07118
G1 X136.839 Y137.802 E.07118
G1 X134.992 Y138.492 E.07118
G1 X133.128 Y138.838 E.06847
G1 X109.915 Y140.181 E.83952
G1 X86.94 Y139.016 E.83062
G1 X84.999 Y138.662 E.07123
G1 X83.153 Y137.966 E.07123
G1 X81.46 Y136.952 E.07124
G1 X80.714 Y136.357 E.03448
G1 X79.976 Y135.652 E.03683
G1 X78.804 Y134.198 E.06744
G1 X76.57 Y130.578 E.15359
G1 X75.793 Y128.766 E.07119
G1 X75.521 Y127.783 E.0368
G1 X75.261 Y125.947 E.06695
G1 X75.108 Y117.633 E.30023
G1 X75.501 Y95.515 E.79873
G1 X75.689 Y91.23 E.15485
G1 X75.945 Y89.53 E.06208
G1 X76.551 Y87.653 E.07122
G1 X77.483 Y85.914 E.07123
G1 X78.082 Y85.089 E.03682
G1 X79.419 Y83.694 E.06978
G1 X79.732 Y84.022 F12000
G1 F3000
G1 X81.261 Y82.91 E.06827
G1 X82.965 Y82.089 E.06827
G1 X84.787 Y81.586 E.06827
G1 X86.125 Y81.42 E.04866
G1 X106.683 Y80.2 E.74358
G1 X108.183 Y80.24 E.05418
G1 X130.668 Y81.439 E.81298
G1 X131.556 Y81.563 E.03238
G1 X136.341 Y82.861 E.17901
G1 X138.085 Y83.515 E.06726
G1 X138.954 Y83.977 E.03554
G1 X140.175 Y84.836 E.0539
G1 X141.42 Y86.025 E.06218
G1 X142.067 Y86.822 E.03706
G1 X142.867 Y88.084 E.05395
G1 X143.238 Y88.886 E.03192
G1 X143.693 Y90.341 E.05503
G1 X143.933 Y91.687 E.04937
G1 X144.071 Y93.147 E.05294
G1 X144.225 Y116.159 E.83089
G1 X144.091 Y117.85 E.06124
G1 X142.5 Y129.542 E.42606
G1 X142.105 Y131.148 E.05971
G1 X141.776 Y132.025 E.03384
G1 X140.881 Y133.69 E.06822
G1 X139.703 Y135.168 E.06823
G1 X138.281 Y136.411 E.06823
G1 X136.659 Y137.381 E.06823
G1 X134.891 Y138.046 E.06823
G1 X133.101 Y138.381 E.06573
G1 X109.895 Y139.724 E.83929
G1 X87.001 Y138.563 E.82767
G1 X85.14 Y138.227 E.06827
G1 X83.369 Y137.564 E.06828
G1 X81.745 Y136.595 E.06828
G1 X80.999 Y135.999 E.03448
G1 X80.321 Y135.351 E.03387
G1 X79.192 Y133.956 E.06479
G1 X76.963 Y130.343 E.15329
G1 X76.221 Y128.605 E.06824
G1 X75.971 Y127.701 E.03385
G1 X75.718 Y125.938 E.06434
G1 X75.565 Y117.633 E.29989
G1 X75.958 Y95.523 E.79843
G1 X76.146 Y91.251 E.15442
G1 X76.394 Y89.611 E.05986
G1 X76.979 Y87.813 E.06827
G1 X77.875 Y86.148 E.06827
G1 X78.426 Y85.39 E.03386
G1 X79.705 Y84.051 E.06683
; OBJECT_ID: 71
; printing object Support_PCB_v0004.STL id:5102421148894 copy 0
G1 E-.7 F2400
;WIPE_START
G1 F3000
G1 X80.511 Y83.46 E-.285
;WIPE_END
G1 E-.015 F2400
G1 Z.4 F12000
G1 X107.553 Y85.445 Z.4
G1 Z.2
G1 E1 F2400
;TYPE:Support
G1 F1500
G3 X111.308 Y87.303 I-.367 J5.466 E.15522
G3 X117.228 Y86.902 I3.286 J4.624 E.22543
G3 X121.355 Y86.59 I2.517 J5.832 E.15222
G3 X125.182 Y87.149 I1.157 J5.461 E.14261
G3 X127.734 Y86.989 I1.845 J9.027 E.09261
G3 X132.907 Y87.717 I1.851 J5.591 E.19542
G3 X137.155 Y97.132 I.523 J5.43 E.48959
G3 X137.184 Y99.012 I-5.897 J1.033 E.06818
G3 X137.236 Y103.54 I-5.503 J2.327 E.16766
G3 X137.147 Y105.761 I-5.332 J.9 E.08086
G3 X137.572 Y109.192 I-4.861 J2.343 E.12707
G3 X138.146 Y113.327 I-4.701 J2.761 E.15467
G3 X137.64 Y119.75 I-4.909 J2.844 E.24739
G1 X137.55 Y120.75 E.03626
G3 X137.049 Y125.67 I-4.998 J1.976 E.18555
G3 X137.319 Y128.837 I-12.738 J2.681 E.11504
G3 X129.371 Y132.449 I-5.241 J-.982 E.36926
G3 X125.896 Y132.329 I-1.499 J-6.911 E.12685
G3 X122.142 Y132.905 I-2.815 J-5.821 E.13915
G3 X115.79 Y131.889 I-2.444 J-5.09 E.24714
G3 X114.545 Y131.817 I-.423 J-3.464 E.04525
G3 X105.807 Y132.55 I-4.625 J-2.676 E.37138
G3 X102.499 Y132.243 I-.982 J-7.384 E.12094
G3 X99.427 Y132.407 I-1.869 J-6.147 E.11218
G3 X96.544 Y132.691 I-2.042 J-5.972 E.10553
G3 X93.92 Y132.845 I-1.643 J-5.543 E.09576
G3 X89.978 Y132.957 I-2.111 J-4.866 E.14589
G3 X82.785 Y129.372 I-2.039 J-4.916 E.32885
G3 X81.254 Y123.565 I3.854 J-4.122 E.22863
G3 X81.241 Y120.263 I5.138 J-1.671 E.12119
G3 X81.751 Y115.042 I5.506 J-2.098 E.19629
G3 X81.989 Y111.692 I7.059 J-1.18 E.1224
G3 X81.602 Y107.176 I5.343 J-2.733 E.16779
G3 X82.503 Y101.529 I4.887 J-2.116 E.21799
G3 X82.43 Y99.508 I5.387 J-1.206 E.0734
G3 X81.692 Y93.781 I4.12 J-3.442 E.22015
G3 X89.931 Y87.756 I4.992 J-1.82 E.49449
G3 X91.366 Y87.938 I.216 J4.046 E.05252
G3 X96.436 Y87.339 I3.084 J4.355 E.19218
G3 X99.494 Y86.384 I5.474 J12.148 E.11597
G3 X103.004 Y87.514 I-.321 J7.013 E.13474
G3 X107.485 Y85.442 I4.5 J3.851 E.18383
G1 X109.879 Y99.85 F12000
G1 F1500
G3 X110.309 Y99.959 I.121 J.426 E.01676
G1 X118.73 Y104.821 E.35108
G1 X118.85 Y105.029 E.00871
G1 X118.85 Y114.971 E.35894
G1 X118.73 Y115.179 E.00871
G1 X110.121 Y120.15 E.35894
G1 X109.879 Y120.15 E.00871
G1 X101.27 Y115.179 E.35894
G1 X101.15 Y114.971 E.00871
G1 X101.15 Y105.029 E.35894
G1 X101.27 Y104.821 E.00871
G1 X109.82 Y99.884 E.35646
G1 X138.175 Y114.266 F12000
G1 F1500
G1 X137.933 Y113.764 E.02015
G1 X137.933 Y118.616 E.1752
G3 X137.425 Y119.346 I-2.266 J-1.034 E.03229
G1 X137.425 Y109.836 E.34338
G3 X137.641 Y110.318 I-1.219 J.836 E.01918
G1 E-.7 F2400
;WIPE_START
G1 F1500
G1 X137.425 Y109.836 E-.1506
G1 X137.425 Y110.308 E-.1344
;WIPE_END
G1 E-.015 F2400
G1 Z.4 F12000
G1 X137.281 Y89.875 Z.4
G1 Z.2
G1 E1 F2400
G1 F1500
G2 X136.917 Y89.478 I-1.33 J.856 E.01952
G1 X136.917 Y96.781 E.26368
G1 X137.425 Y96.218 E.02739
G1 X137.425 Y90.052 E.22262
G3 X137.933 Y90.817 I-2.066 J1.923 E.0333
G1 X137.933 Y95.407 E.16571
G1 X137.569 Y96.041 E.02642
G1 E-.7 F2400
;WIPE_START
G1 F1500
G1 X137.933 Y95.407 E-.20854
G1 X137.933 Y95.138 E-.07646
;WIPE_END
G1 E-.015 F2400
G1 Z.4 F12000
G1 X137.283 Y124.242 Z.4
G1 Z.2
G1 E1 F2400
G1 F1500
G1 X137.425 Y123.727 E.01929
G1 X137.425 Y121.754 E.07125
G1 X137.283 Y121.238 E.01931
G1 X136.775 Y129.262 F12000
G1 F1500
G2 X136.775 Y126.51 I-6.585 J-1.376 E.10006
G1 X137.159 Y124.594 F12000
G1 F1500
G1 X136.917 Y125.097 E.02017
G1 X136.917 Y106.231 E.68118
G3 X137.064 Y106.673 I-1.145 J.627 E.01693
G1 X136.775 Y105.531 F12000
G1 F1500
G2 X136.917 Y99.397 I-106.823 J-5.545 E.22156
G3 X137.084 Y99.849 I-1.06 J.65 E.01752
G1 X136.035 Y130.764 F12000
G1 F1500
G2 X136.409 Y130.171 I-1.448 J-1.326 E.02545
G1 X136.409 Y89.042 E1.48499
G2 X135.901 Y88.741 I-1.178 J1.411 E.0214
M73 P2 R53
G1 X135.901 Y130.949 E1.52394
G3 X135.393 Y131.486 I-1.734 J-1.131 E.02683
G1 X135.393 Y88.486 E1.55255
G1 X134.885 Y88.319 E.0193
M73 P3 R53
G1 X134.885 Y131.895 E1.57336
G3 X134.378 Y132.223 I-1.158 J-1.235 E.02195
G1 X134.378 Y88.195 E1.58967
G1 X133.87 Y88.122 E.01853
G1 X133.87 Y132.44 E1.60017
G3 X133.362 Y132.61 I-.722 J-1.315 E.01944
G1 X133.362 Y88.115 E1.60655
G1 X132.854 Y88.13 E.01835
G1 X132.854 Y132.726 E1.61018
G1 X133.139 Y132.661 E.01056
G1 X131.116 Y87.248 F12000
G1 F1500
G1 X130.823 Y87.181 E.01087
G1 X130.823 Y132.62 E1.64063
G2 X131.33 Y132.72 I.53 J-1.349 E.01879
G1 X131.33 Y87.325 E1.63906
G1 X131.838 Y87.542 E.01995
G1 X131.838 Y132.789 E1.63368
G2 X132.346 Y132.77 I.202 J-1.409 E.01845
G1 X132.346 Y87.84 E1.62226
G1 X132.653 Y88.042 E.01326
G1 X130.008 Y132.325 F12000
G1 F1500
G2 X130.315 Y132.455 I.512 J-.78 E.01209
G1 X130.315 Y87.068 E1.63874
G1 X129.807 Y87.045 E.01836
G1 X129.807 Y132.217 E1.63097
G2 X129.299 Y132.044 I-.353 J.205 E.02114
G1 X129.299 Y87.05 E1.62455
G1 X128.791 Y87.119 E.0185
G1 X128.791 Y132.159 E1.62625
G1 X129.076 Y132.095 E.01055
G1 X127.993 Y87.338 F12000
G1 F1500
G1 X128.283 Y87.244 E.01103
G1 X128.283 Y132.244 E1.6248
G1 X127.775 Y132.267 E.01835
G1 X127.775 Y87.408 E1.61966
G3 X127.494 Y87.357 I-.097 J-.261 E.01084
G1 X121.986 Y132.516 F12000
G1 F1500
G3 X121.681 Y132.655 I-.559 J-.826 E.01217
G1 X121.681 Y86.961 E1.64983
G1 X122.189 Y86.892 E.0185
G1 X122.189 Y132.438 E1.64449
G1 X122.697 Y132.507 E.0185
M73 P4 R53
G1 X122.697 Y86.886 E1.64718
G1 X123.205 Y86.909 E.01836
G1 X123.205 Y132.56 E1.64825
G1 X123.712 Y132.537 E.01836
G1 X123.712 Y87.021 E1.64338
G3 X124.22 Y87.164 I-.139 J1.47 E.01915
G1 X124.22 Y132.472 E1.63591
G1 X124.728 Y132.356 E.01881
G1 X124.728 Y87.381 E1.62386
G2 X125.236 Y87.564 I.528 J-.672 E.01983
G1 X125.236 Y132.164 E1.61032
G1 X125.744 Y131.946 E.01995
G1 X125.744 Y87.411 E1.60797
G1 X126.252 Y87.343 E.0185
G1 X126.252 Y132.012 E1.61282
G2 X126.76 Y132.166 I.678 J-1.323 E.01926
G1 X126.76 Y87.312 E1.61949
G1 X127.267 Y87.335 E.01836
G1 X127.267 Y132.235 E1.62116
G1 X126.986 Y132.196 E.01025
G1 X121.454 Y86.991 F12000
G1 F1500
G3 X121.173 Y86.959 I-.114 J-.252 E.01074
G1 X121.173 Y132.872 E1.65771
G3 X120.665 Y132.995 I-.592 J-1.337 E.01897
G1 X120.665 Y86.841 E1.66642
G2 X120.157 Y86.751 I-.5 J1.354 E.01872
M73 P4 R52
G1 X120.157 Y133.088 E1.67303
G1 X119.649 Y133.111 E.01836
G1 X119.649 Y86.729 E1.67466
G2 X119.142 Y86.756 I-.177 J1.413 E.01846
G1 X119.142 Y104.711 E.64827
G2 X118.634 Y104.29 I-.618 J.229 E.02494
G1 X118.634 Y86.825 E.63058
G2 X118.126 Y86.974 I.157 J1.474 E.01921
G1 X118.126 Y103.997 E.61461
G1 X117.816 Y103.818 E.01292
G1 X119.256 Y104.909 F12000
G1 F1500
G1 X119.142 Y133.087 E1.0174
G1 X118.634 Y133.018 E.01851
G1 X118.634 Y115.71 E.62491
G1 X118.126 Y116.003 E.02117
G1 X118.126 Y132.873 E.60909
G3 X117.618 Y132.692 I.243 J-1.489 E.01956
G1 X117.618 Y116.296 E.59199
G1 X117.11 Y116.59 E.02117
M73 P5 R52
G1 X117.11 Y132.418 E.57152
G3 X116.602 Y132.064 I.723 J-1.576 E.02248
G1 X116.602 Y116.883 E.54813
G1 X116.912 Y116.704 E.01292
G1 E-.7 F2400
;WIPE_START
G1 F1500
G1 X116.602 Y116.883 E-.102
G1 X116.602 Y117.525 E-.183
;WIPE_END
G1 E-.015 F2400
G1 Z.4 F12000
G1 X111.214 Y100.006 Z.4
G1 Z.2
G1 E1 F2400
G1 F1500
G1 X111.524 Y100.185 E.01292
G1 X111.524 Y87.657 E.45232
G3 X112.031 Y87.299 I1.241 J1.219 E.02256
G1 X112.031 Y100.478 E.47585
G1 X112.539 Y100.771 E.02117
G1 X112.539 Y87.025 E.49632
G3 X113.047 Y86.842 I.759 J1.306 E.0196
G1 X113.047 Y101.065 E.51354
G1 X113.555 Y101.358 E.02117
G1 X113.555 Y86.694 E.52946
G1 X114.063 Y86.625 E.01851
G1 X114.063 Y101.651 E.54254
G1 X114.571 Y101.944 E.02117
G1 X114.571 Y86.598 E.55408
G1 X115.079 Y86.621 E.01836
G1 X115.079 Y102.238 E.56385
G1 X115.587 Y102.531 E.02117
G1 X115.587 Y86.712 E.57117
G3 X116.094 Y86.831 I-.075 J1.457 E.01894
G1 X116.094 Y102.824 E.57743
G1 X116.602 Y103.117 E.02117
G1 X116.602 Y87.048 E.58018
G3 X117.11 Y87.318 I-.487 J1.533 E.02087
G1 X117.11 Y103.41 E.58104
G1 X117.618 Y103.704 E.02117
G1 X117.618 Y87.16 E.59734
G1 X117.306 Y87.327 E.01279
G1 E-.7 F2400
;WIPE_START
G1 F1500
G1 X117.618 Y87.16 E-.10097
G1 X117.618 Y87.805 E-.18403
;WIPE_END
G1 E-.015 F2400
G1 Z.4 F12000
G1 X116.424 Y131.921 Z.4
G1 Z.2
G1 E1 F2400
G1 F1500
G3 X116.094 Y131.613 I.685 J-1.061 E.01638
G1 X116.094 Y117.176 E.52125
G1 X115.587 Y117.469 E.02117
G1 X115.587 Y131.487 E.50612
G3 X115.079 Y131.474 I-.22 J-1.405 E.01844
G1 X115.079 Y117.762 E.49508
G1 X114.571 Y118.056 E.02117
G1 X114.571 Y131.405 E.48201
G1 X114.357 Y131.377 E.00779
G1 X114.063 Y131.781 E.01807
G1 X114.063 Y118.349 E.48499
G1 X114.373 Y118.17 E.01292
G1 X113.39 Y132.618 F12000
G1 F1500
G1 X113.047 Y132.945 E.01711
G1 X113.047 Y118.935 E.50585
G1 X113.555 Y118.642 E.02117
G1 X113.555 Y132.46 E.49891
G2 X113.929 Y131.966 I-1.173 J-1.275 E.02248
G1 X112.849 Y119.05 F12000
G1 F1500
G1 X112.539 Y119.229 E.01292
G1 X112.539 Y133.304 E.50822
G3 X112.031 Y133.593 I-1.049 J-1.254 E.02121
G1 X112.031 Y119.522 E.50806
G1 X111.524 Y119.815 E.02117
G1 X111.524 Y133.81 E.5053
G3 X111.016 Y133.946 I-.629 J-1.331 E.01909
G1 X111.016 Y120.108 E.49963
G1 X110.508 Y120.401 E.02117
G1 X110.508 Y134.052 E.49286
G1 X110 Y134.074 E.01836
G1 X110 Y120.561 E.48789
G3 X109.492 Y120.401 I-.115 J-.52 E.02013
G1 X109.492 Y134.062 E.49325
G1 X108.984 Y133.993 E.01851
G1 X108.984 Y120.108 E.50134
G1 X108.476 Y119.815 E.02117
G1 X108.476 Y133.861 E.50715
G3 X107.969 Y133.695 I.204 J-1.483 E.0194
G1 X107.969 Y119.522 E.51174
G1 X107.461 Y119.229 E.02117
G1 X107.461 Y133.421 E.51244
G3 X106.953 Y133.084 I.675 J-1.568 E.02213
G1 X106.953 Y118.935 E.51085
G1 X106.445 Y118.642 E.02117
G1 X106.445 Y132.656 E.50599
G1 X106.093 Y132.253 E.01932
G1 E-.7 F2400
;WIPE_START
G1 F1500
G1 X106.445 Y132.656 E-.1525
G1 X106.445 Y132.191 E-.1325
;WIPE_END
G1 E-.015 F2400
G1 Z.4 F12000
G1 X104.611 Y102.416 Z.4
G1 Z.2
G1 E1 F2400
G1 F1500
G1 X104.921 Y102.238 E.01292
G1 X104.921 Y86.426 E.57089
G3 X105.429 Y86.18 I.93 J1.276 E.02048
G1 X105.429 Y101.944 E.56918
G1 X105.937 Y101.651 E.02117
G1 X105.937 Y86.016 E.56454
G3 X106.445 Y85.909 I.548 J1.346 E.01884
G1 X106.445 Y101.358 E.5578
G1 X106.953 Y101.065 E.02117
G1 X106.953 Y85.84 E.54969
G3 X107.461 Y85.853 I.219 J1.404 E.01844
G1 X107.461 Y100.771 E.53865
G1 X107.969 Y100.478 E.02117
G1 X107.969 Y85.89 E.52671
G1 X108.476 Y86.006 E.01881
G1 X108.476 Y100.185 E.51193
G1 X108.984 Y99.892 E.02117
G1 X108.984 Y86.17 E.49546
G1 X109.492 Y86.387 E.01995
G1 X109.492 Y99.599 E.47702
G3 X110 Y99.439 I.392 J.36 E.02013
G1 X110 Y86.707 E.45968
G3 X110.508 Y87.107 I-.847 J1.599 E.02345
G1 X110.508 Y99.599 E.45104
G1 X111.016 Y99.892 E.02117
G1 X111.016 Y87.593 E.44408
G1 X110.673 Y87.265 E.01713
M73 P6 R52
G1 E-.7 F2400
;WIPE_START
G1 F1500
G1 X111.016 Y87.593 E-.13521
G1 X111.016 Y88.118 E-.14979
;WIPE_END
G1 E-.015 F2400
G1 Z.4 F12000
G1 X103.088 Y116.704 Z.4
G1 Z.2
G1 E1 F2400
G1 F1500
G1 X103.398 Y116.883 E.01292
G1 X103.398 Y132.103 E.54953
G2 X103.906 Y132.205 I.534 J-1.348 E.0188
G1 X103.906 Y117.176 E.54262
G1 X104.413 Y117.469 E.02117
G1 X104.413 Y132.274 E.53452
G2 X104.921 Y132.256 I.207 J-1.407 E.01845
G1 X104.921 Y117.762 E.52332
G1 X105.429 Y118.056 E.02117
G1 X105.429 Y132.214 E.51121
G1 X105.937 Y132.098 E.01881
G1 X105.937 Y118.349 E.49644
G1 X106.247 Y118.528 E.01292
G1 E-.7 F2400
;WIPE_START
G1 F1500
G1 X105.937 Y118.349 E-.102
G1 X105.937 Y118.991 E-.183
;WIPE_END
G1 E-.015 F2400
G1 Z.4 F12000
G1 X102.191 Y87.469 Z.4
G1 Z.2
G1 E1 F2400
G1 F1500
G2 X101.874 Y87.302 I-.619 J.791 E.01302
G1 X101.874 Y103.997 E.60277
