; HEADER_BLOCK_START
; generated by Creality_Print V7.1.1.4472 on 2026-06-29 at 09:54:10
; total layer number: 57
; filament_density: 1.24
; filament_diameter: 1.75
; max_z_height: 11.40
; creality_uuid: 95aef004-3379-4b92-bc02-73f95c179d71
; HEADER_BLOCK_END

; MINX = 69.50
; MINY = 35.78
; MINZ = 0.00
; MAXX = 150.50
; MAXY = 184.22
; MAXZ = 11.30

; multicolor_method = 0 
; THUMBNAIL_BLOCK_START

;
; THUMBNAIL_BLOCK_END

; external perimeters extrusion width = 0.42mm
; perimeters extrusion width = 0.45mm
; infill extrusion width = 0.45mm
; solid infill extrusion width = 0.45mm
; top infill extrusion width = 0.42mm
; support material extrusion width = 0.38mm
; first layer extrusion width = 0.50mm

; EXECUTABLE_BLOCK_START
M73 P0 R88
M201 X2000 Y2000 Z100 E2000
M203 X250 Y250 Z30 E100
M204 P2000 R1000 T2000
M205 X12.00 Y12.00 Z0.40 E5.00 ; sets the jerk limits, mm/sec
M106 S0
M106 P2 S0
; max_print_temp = 60,215
;TYPE:Custom
G90 ; use absolute coordinates
M83 ; extruder relative mode
M104 S150 ; set temporary nozzle temp to prevent oozing during homing
M140 S60 ; set final bed temp
G4 S30 ; allow partial nozzle warmup
G28 ; home all axis and restore leveling
G1 Z50 F240
G1 X2.0 Y10 F3000
M104 S215 ; set final nozzle temp
M190 S60 ; wait for bed temp to stabilize
M109 S215 ; wait for nozzle temp to stabilize
G1 Z0.28 F240
G92 E0
G1 X2.0 Y140 E10 F1500 ; prime the nozzle
M73 P1 R87
G1 X2.3 Y140 F5000
G92 E0
G1 X2.3 Y10 E10 F1200 ; prime the nozzle
G92 E0
G90
G21
M83 ; use relative distances for extrusion
; filament start gcode
G1 E-1 F2400
G1 Z.2 F12000
M106 S0
;LAYER_CHANGE
;:0.2
;HEIGHT:0.2
;BEFORE_LAYER_CHANGE
;0.2
G92 E0
;TIME_ELAPSED:122.400650
;_SET_FAN_SPEED_CHANGING_LAYER
M204 S500
M205 X9 Y9
G1 X61.155 Y33.367 Z.4 F12000
G1 Z.2
G1 E1 F2400
;TYPE:Skirt
;WIDTH:0.5
G1 F3000
G1 X61.535 Y32.67 E.02867
G1 X62.521 Y31.314 E.06054
G1 X64.318 Y29.412 E.09447
G1 X66.39 Y27.815 E.09446
G1 X68.626 Y26.591 E.09202
G1 X69.517 Y26.218 E.03489
G1 X71.151 Y25.683 E.06209
G1 X73.723 Y25.201 E.09448
G1 X75.5 Y25.094 E.06427
G1 X145.338 Y25.127 E2.52158
G1 X147.911 Y25.459 E.09365
G1 X148.835 Y25.68 E.03429
G1 X151.313 Y26.562 E.09498
G1 X153.61 Y27.815 E.09447
G1 X155.682 Y29.412 E.09446
G1 X157.479 Y31.313 E.09447
G1 X158.957 Y33.473 E.09448
G1 X159.718 Y34.967 E.06054
G1 X160.597 Y37.431 E.09447
G1 X161.079 Y40.003 E.09447
G1 X161.186 Y41.78 E.06428
G1 X161.186 Y178.22 E4.9263
G1 X161.079 Y179.997 E.06428
G1 X160.816 Y181.653 E.06054
G1 X160.079 Y184.163 E.09447
G1 X159.718 Y185.033 E.03399
G1 X158.465 Y187.33 E.09447
G1 X157.479 Y188.687 E.06054
G1 X155.682 Y190.588 E.09446
G1 X153.61 Y192.185 E.09447
G1 X151.334 Y193.428 E.09364
G1 X150.457 Y193.793 E.03429
G1 X148.849 Y194.317 E.06107
G1 X146.277 Y194.799 E.09447
G1 X144.5 Y194.906 E.06428
G1 X75.5 Y194.906 E2.49131
G1 X73.723 Y194.799 E.06428
G1 X72.067 Y194.537 E.06054
G1 X71.151 Y194.317 E.03399
G1 X68.687 Y193.438 E.09447
G1 X66.39 Y192.185 E.09447
G1 X65.033 Y191.199 E.06055
G1 X63.132 Y189.402 E.09446
G1 X61.535 Y187.33 E.09447
G1 X60.292 Y185.054 E.09364
G1 X59.403 Y182.569 E.09529
G1 X58.921 Y179.997 E.09447
G1 X58.847 Y179.058 E.03399
G1 X58.814 Y41.78 E4.95657
G1 X58.921 Y40.003 E.06428
G1 X59.183 Y38.347 E.06054
G1 X59.403 Y37.431 E.03399
G1 X60.282 Y34.967 E.09447
G1 X61.135 Y33.402 E.06435
G1 X61.535 Y33.621 F12000
G1 F3000
G1 X61.925 Y32.909 E.02929
G1 X62.868 Y31.61 E.05795
G1 X64.614 Y29.759 E.09188
G1 X66.629 Y28.205 E.09188
G1 X68.802 Y27.013 E.0895
G1 X69.693 Y26.64 E.03489
G1 X71.258 Y26.128 E.05943
G1 X73.759 Y25.657 E.09189
G1 X75.5 Y25.551 E.06298
G1 X145.302 Y25.583 E2.52029
G1 X147.805 Y25.904 E.09108
G1 X148.728 Y26.125 E.03429
G1 X151.138 Y26.984 E.09237
G1 X153.371 Y28.205 E.09189
G1 X155.385 Y29.759 E.09187
G1 X157.132 Y31.61 E.09188
G1 X158.567 Y33.712 E.09189
G1 X159.296 Y35.142 E.05795
G1 X160.152 Y37.538 E.09188
G1 X160.623 Y40.039 E.09188
G1 X160.729 Y41.78 E.06298
G1 X160.729 Y178.22 E4.9263
G1 X160.623 Y179.961 E.06298
G1 X160.372 Y181.546 E.05795
G1 X160.152 Y182.462 E.03399
G1 X159.296 Y184.858 E.09188
G1 X158.075 Y187.091 E.09188
G1 X157.132 Y188.39 E.05795
G1 X155.386 Y190.24 E.09188
G1 X153.371 Y191.795 E.09188
G1 X151.158 Y193.006 E.09108
G1 X150.281 Y193.371 E.03429
G1 X148.742 Y193.872 E.05846
G1 X146.241 Y194.343 E.09188
G1 X144.5 Y194.449 E.06298
G1 X75.5 Y194.449 E2.49131
G1 X73.759 Y194.343 E.06298
G1 X72.174 Y194.092 E.05795
G1 X71.258 Y193.872 E.03399
G1 X68.862 Y193.016 E.09188
G1 X66.629 Y191.795 E.09188
G1 X65.33 Y190.852 E.05796
G1 X63.48 Y189.106 E.09188
G1 X61.925 Y187.091 E.09188
G1 X60.714 Y184.878 E.09108
G1 X59.848 Y182.462 E.09268
G1 X59.377 Y179.961 E.09188
G1 X59.303 Y179.022 E.03399
G1 X59.271 Y41.78 E4.95528
G1 X59.377 Y40.039 E.06298
G1 X59.628 Y38.454 E.05795
G1 X59.848 Y37.538 E.03399
G1 X60.704 Y35.142 E.09188
G1 X61.516 Y33.656 E.06114
; OBJECT_ID: 212
; printing object DisplayCase_v0009_simple.STL id:2455715356672 copy 0
G1 E-.7 F2400
;WIPE_START
G1 F3000
G1 X61.925 Y32.909 E-.24264
G1 X62.012 Y32.789 E-.04236
;WIPE_END
G1 E-.015 F2400
G1 Z.4 F12000
G1 X66.419 Y36.652 Z.4
G1 Z.2
G1 E1 F2400
;TYPE:Brim
G1 F3000
G1 X66.851 Y35.945 E.02991
G1 X67.261 Y35.378 E.02525
G1 X67.87 Y34.663 E.03391
G1 X68.364 Y34.168 E.02525
G1 X69.077 Y33.557 E.03391
G1 X69.642 Y33.146 E.02525
G1 X70.435 Y32.658 E.03361
G1 X71.053 Y32.342 E.02504
G1 X71.927 Y31.977 E.0342
G1 X72.597 Y31.758 E.02546
G1 X73.51 Y31.538 E.03391
G1 X74.201 Y31.427 E.02526
G1 X75.141 Y31.352 E.03407
G1 X75.497 Y31.338 E.01284
G1 X144.503 Y31.338 E2.49156
G1 X144.853 Y31.352 E.01263
G1 X145.77 Y31.424 E.03321
G1 X146.449 Y31.531 E.02483
G1 X147.371 Y31.749 E.03421
G1 X148.042 Y31.966 E.02545
G1 X148.91 Y32.324 E.03391
G1 X149.534 Y32.641 E.02525
G1 X150.335 Y33.131 E.03391
G1 X150.902 Y33.541 E.02525
G1 X151.617 Y34.15 E.03391
G1 X152.112 Y34.644 E.02525
G1 X152.723 Y35.357 E.03391
G1 X153.134 Y35.922 E.02525
G1 X153.626 Y36.723 E.03391
G1 X153.944 Y37.345 E.02525
G1 X154.305 Y38.212 E.03391
G1 X154.522 Y38.877 E.02525
G1 X154.74 Y39.782 E.03361
G1 X154.85 Y40.467 E.02504
G1 X154.927 Y41.415 E.03436
G1 X154.942 Y41.777 E.01306
G1 X154.942 Y178.212 E4.92615
G1 X154.855 Y179.498 E.04653
G1 X154.747 Y180.183 E.02505
G1 X154.529 Y181.097 E.03391
G1 X154.314 Y181.762 E.02525
G1 X153.956 Y182.63 E.03391
G1 X153.639 Y183.254 E.02525
G1 X153.149 Y184.055 E.03391
G1 X152.739 Y184.622 E.02525
G1 X152.13 Y185.337 E.03391
G1 X151.636 Y185.832 E.02525
G1 X150.923 Y186.443 E.03391
G1 X150.358 Y186.854 E.02525
G1 X149.565 Y187.342 E.03361
G1 X148.947 Y187.658 E.02504
G1 X148.073 Y188.023 E.0342
G1 X147.403 Y188.242 E.02546
G1 X146.49 Y188.462 E.03391
G1 X145.799 Y188.573 E.02525
G1 X144.859 Y188.648 E.03407
G1 X144.503 Y188.662 E.01284
G1 X75.508 Y188.662 E2.49115
G1 X74.222 Y188.575 E.04653
G1 X73.537 Y188.467 E.02505
G1 X72.623 Y188.249 E.03391
G1 X71.958 Y188.034 E.02525
G1 X71.09 Y187.676 E.03391
G1 X70.466 Y187.359 E.02525
G1 X69.665 Y186.869 E.03391
G1 X69.098 Y186.459 E.02525
G1 X68.383 Y185.85 E.03391
G1 X67.888 Y185.356 E.02525
G1 X67.277 Y184.643 E.03391
G1 X66.866 Y184.078 E.02525
G1 X66.378 Y183.285 E.03361
G1 X66.062 Y182.667 E.02504
G1 X65.697 Y181.793 E.0342
G1 X65.478 Y181.123 E.02546
G1 X65.258 Y180.21 E.03391
G1 X65.148 Y179.52 E.02521
G1 X65.058 Y178.22 E.04707
G1 X65.058 Y41.788 E4.92602
G1 X65.145 Y40.502 E.04653
G1 X65.253 Y39.817 E.02505
G1 X65.471 Y38.903 E.03391
G1 X65.686 Y38.238 E.02525
G1 X66.044 Y37.37 E.03391
G1 X66.361 Y36.746 E.02525
G1 X66.398 Y36.686 E.00256
G1 X66.788 Y36.924 F12000
G1 F3000
G1 X67.234 Y36.194 E.03091
G1 X67.624 Y35.657 E.02395
G1 X68.203 Y34.978 E.03222
G1 X68.679 Y34.5 E.02434
G1 X69.357 Y33.92 E.03222
G1 X69.902 Y33.523 E.02434
G1 X70.655 Y33.06 E.03193
G1 X71.24 Y32.76 E.02375
G1 X72.081 Y32.408 E.0329
G1 X72.717 Y32.2 E.02415
G1 X73.605 Y31.985 E.033
G1 X74.26 Y31.881 E.02396
G1 X75.166 Y31.809 E.0328
G1 X75.509 Y31.795 E.01238
G1 X144.497 Y31.795 E2.4909
G1 X145.711 Y31.878 E.04394
G1 X146.356 Y31.979 E.02355
G1 X147.243 Y32.189 E.03291
G1 X147.89 Y32.397 E.02454
G1 X148.714 Y32.738 E.03222
G1 X149.306 Y33.038 E.02396
G1 X150.077 Y33.509 E.03261
G1 X150.623 Y33.904 E.02434
G1 X151.31 Y34.49 E.03261
G1 X151.78 Y34.959 E.02395
G1 X152.36 Y35.637 E.03222
G1 X152.751 Y36.173 E.02395
G1 X153.224 Y36.942 E.03261
G1 X153.531 Y37.542 E.02434
G1 X153.878 Y38.376 E.03261
G1 X154.083 Y39.007 E.02395
G1 X154.291 Y39.867 E.03193
G1 X154.396 Y40.527 E.02413
G1 X154.471 Y41.446 E.03329
G1 X154.485 Y41.789 E.01238
G1 X154.485 Y178.192 E4.92499
G1 X154.401 Y179.441 E.04519
G1 X154.297 Y180.1 E.02409
G1 X154.09 Y180.968 E.03223
G1 X153.886 Y181.599 E.02395
G1 X153.538 Y182.444 E.033
G1 X153.237 Y183.036 E.02395
G1 X152.766 Y183.806 E.03261
G1 X152.376 Y184.343 E.02395
G1 X151.797 Y185.022 E.03223
G1 X151.321 Y185.5 E.02434
G1 X150.643 Y186.08 E.03222
G1 X150.098 Y186.477 E.02434
G1 X149.345 Y186.94 E.03193
G1 X148.76 Y187.24 E.02375
G1 X147.919 Y187.592 E.0329
G1 X147.283 Y187.8 E.02415
G1 X146.405 Y188.012 E.03261
G1 X145.75 Y188.117 E.02395
G1 X144.829 Y188.192 E.03339
G1 X144.491 Y188.205 E.01218
G1 X75.528 Y188.205 E2.49
G1 X74.279 Y188.121 E.04519
M73 P1 R86
G1 X73.62 Y188.017 E.02408
G1 X72.752 Y187.81 E.03223
G1 X72.121 Y187.606 E.02395
G1 X71.276 Y187.258 E.033
G1 X70.684 Y186.957 E.02395
G1 X69.914 Y186.486 E.03261
G1 X69.377 Y186.096 E.02395
G1 X68.698 Y185.517 E.03222
G1 X68.22 Y185.041 E.02434
G1 X67.64 Y184.363 E.03222
G1 X67.243 Y183.818 E.02434
G1 X66.78 Y183.065 E.03193
G1 X66.48 Y182.48 E.02375
G1 X66.128 Y181.639 E.0329
G1 X65.92 Y181.003 E.02415
G1 X65.708 Y180.125 E.03261
G1 X65.603 Y179.475 E.02379
G1 X65.515 Y178.2 E.04615
G1 X65.515 Y41.808 E4.92456
G1 X65.599 Y40.559 E.04519
M73 P2 R86
G1 X65.703 Y39.9 E.02409
G1 X65.91 Y39.032 E.03223
G1 X66.114 Y38.401 E.02395
G1 X66.462 Y37.556 E.033
G1 X66.763 Y36.964 E.02395
G1 X66.767 Y36.958 E.00026
G1 X67.165 Y37.183 F12000
G1 F3000
G1 X67.618 Y36.443 E.03132
G1 X67.987 Y35.936 E.02266
G1 X68.536 Y35.292 E.03055
G1 X68.994 Y34.832 E.02343
G1 X69.636 Y34.282 E.03054
G1 X70.161 Y33.9 E.02343
G1 X70.875 Y33.461 E.03026
G1 X71.428 Y33.177 E.02247
G1 X72.236 Y32.839 E.0316
G1 X72.837 Y32.642 E.02283
G1 X73.7 Y32.433 E.03208
G1 X74.32 Y32.335 E.02266
G1 X75.191 Y32.265 E.03153
G1 X75.52 Y32.252 E.01192
G1 X144.477 Y32.252 E2.48974
G1 X145.654 Y32.332 E.04261
G1 X146.262 Y32.427 E.02222
G1 X147.114 Y32.628 E.03161
G1 X147.737 Y32.829 E.02362
G1 X148.519 Y33.152 E.03053
G1 X149.079 Y33.435 E.02266
G1 X149.819 Y33.886 E.03131
G1 X150.344 Y34.267 E.02342
G1 X151.004 Y34.83 E.03131
G1 X151.448 Y35.274 E.02266
G1 X151.998 Y35.916 E.03055
G1 X152.368 Y36.423 E.02266
G1 X152.823 Y37.162 E.03131
G1 X153.118 Y37.739 E.02342
G1 X153.45 Y38.54 E.03131
G1 X153.644 Y39.137 E.02265
G1 X153.841 Y39.952 E.03026
G1 X153.943 Y40.587 E.02323
G1 X154.015 Y41.476 E.03222
G1 X154.028 Y41.801 E.01171
G1 X154.028 Y178.172 E4.92383
G1 X153.947 Y179.384 E.04384
G1 X153.847 Y180.016 E.02312
G1 X153.651 Y180.839 E.03056
G1 X153.459 Y181.437 E.02265
G1 X153.12 Y182.258 E.03208
G1 X152.835 Y182.817 E.02265
G1 X152.382 Y183.557 E.03132
G1 X152.013 Y184.064 E.02266
G1 X151.464 Y184.708 E.03055
G1 X151.006 Y185.168 E.02343
G1 X150.364 Y185.718 E.03054
G1 X149.839 Y186.1 E.02343
G1 X149.125 Y186.539 E.03026
G1 X148.572 Y186.823 E.02247
G1 X147.764 Y187.161 E.0316
G1 X147.163 Y187.358 E.02284
G1 X146.32 Y187.563 E.03131
G1 X145.701 Y187.662 E.02265
G1 X144.804 Y187.735 E.03249
G1 X75.548 Y187.748 E2.50056
G1 X74.336 Y187.667 E.04385
G1 X73.704 Y187.567 E.02312
G1 X72.881 Y187.371 E.03056
G1 X72.283 Y187.179 E.02265
G1 X71.462 Y186.84 E.03209
G1 X70.903 Y186.555 E.02265
G1 X70.163 Y186.102 E.03132
G1 X69.656 Y185.733 E.02266
G1 X69.012 Y185.184 E.03054
G1 X68.552 Y184.726 E.02343
G1 X68.002 Y184.084 E.03054
G1 X67.62 Y183.559 E.02343
G1 X67.181 Y182.845 E.03026
G1 X66.897 Y182.292 E.02246
G1 X66.559 Y181.484 E.0316
G1 X66.362 Y180.883 E.02284
G1 X66.157 Y180.04 E.03131
G1 X66.059 Y179.429 E.02237
G1 X65.972 Y178.179 E.04523
G1 X65.972 Y41.828 E4.9231
G1 X66.053 Y40.616 E.04384
G1 X66.153 Y39.984 E.02312
G1 X66.349 Y39.161 E.03056
G1 X66.541 Y38.563 E.02265
G1 X66.88 Y37.742 E.03208
G1 X67.147 Y37.219 E.0212
G1 X67.555 Y37.427 F12000
G1 F3000
G1 X67.567 Y37.402 E.001
G1 X68.002 Y36.693 E.03002
G1 X68.35 Y36.215 E.02136
G1 X68.868 Y35.606 E.02887
G1 X69.309 Y35.164 E.02252
G1 X69.916 Y34.645 E.02885
G1 X70.42 Y34.277 E.02252
G1 X71.095 Y33.863 E.0286
G1 X71.616 Y33.594 E.02118
G1 X72.391 Y33.27 E.0303
G1 X72.957 Y33.083 E.02151
G1 X73.795 Y32.881 E.03115
G1 X74.379 Y32.789 E.02135
G1 X75.215 Y32.722 E.03028
G1 X144.466 Y32.71 E2.50037
G1 X145.598 Y32.786 E.04095
G1 X146.169 Y32.875 E.02088
G1 X146.986 Y33.067 E.0303
G1 X147.584 Y33.26 E.0227
G1 X148.323 Y33.565 E.02885
G1 X148.851 Y33.832 E.02137
G1 X149.561 Y34.264 E.03
G1 X150.066 Y34.63 E.0225
G1 X150.697 Y35.17 E.03
G1 X151.115 Y35.588 E.02136
G1 X151.636 Y36.196 E.02889
G1 X151.985 Y36.674 E.02137
G1 X152.421 Y37.381 E.03
G1 X152.705 Y37.936 E.0225
G1 X153.023 Y38.704 E.03
G1 X153.205 Y39.267 E.02136
G1 X153.391 Y40.036 E.0286
G1 X153.489 Y40.647 E.02233
G1 X153.558 Y41.501 E.03094
G1 X153.571 Y178.152 E4.93392
G1 X153.492 Y179.327 E.0425
G1 X153.397 Y179.933 E.02215
G1 X153.212 Y180.711 E.02888
G1 X153.031 Y181.274 E.02135
G1 X152.702 Y182.072 E.03116
G1 X152.433 Y182.598 E.02134
G1 X151.998 Y183.307 E.03002
G1 X151.65 Y183.785 E.02136
G1 X151.132 Y184.394 E.02887
G1 X150.691 Y184.836 E.02252
G1 X150.084 Y185.355 E.02885
G1 X149.58 Y185.723 E.02252
G1 X148.905 Y186.137 E.0286
G1 X148.384 Y186.406 E.02118
G1 X147.609 Y186.73 E.0303
G1 X147.043 Y186.917 E.02153
G1 X146.235 Y187.113 E.03001
G1 X145.652 Y187.207 E.02135
G1 X144.791 Y187.277 E.03117
G1 X75.568 Y187.291 E2.49938
G1 X74.393 Y187.212 E.0425
G1 X73.787 Y187.117 E.02215
G1 X73.009 Y186.932 E.02889
G1 X72.446 Y186.751 E.02135
G1 X71.648 Y186.422 E.03116
G1 X71.122 Y186.153 E.02134
G1 X70.413 Y185.718 E.03002
G1 X69.935 Y185.37 E.02136
G1 X69.326 Y184.852 E.02887
G1 X68.884 Y184.411 E.02252
G1 X68.365 Y183.804 E.02885
G1 X67.997 Y183.3 E.02252
G1 X67.583 Y182.625 E.0286
G1 X67.314 Y182.104 E.02118
G1 X66.99 Y181.329 E.0303
G1 X66.803 Y180.763 E.02153
G1 X66.607 Y179.955 E.03001
G1 X66.514 Y179.383 E.02095
G1 X66.429 Y178.158 E.04431
G1 X66.429 Y41.848 E4.92164
G1 X66.508 Y40.673 E.0425
G1 X66.603 Y40.067 E.02215
G1 X66.788 Y39.289 E.02889
G1 X66.969 Y38.726 E.02135
G1 X67.298 Y37.928 E.03116
G1 X67.536 Y37.462 E.01889
G1 X67.944 Y37.671 F12000
G1 F3000
G1 X67.969 Y37.621 E.00201
G1 X68.385 Y36.943 E.02873
G1 X68.713 Y36.494 E.02007
G1 X69.201 Y35.92 E.02721
G1 X69.624 Y35.496 E.02161
G1 X70.195 Y35.007 E.02717
G1 X70.679 Y34.654 E.02161
G1 X71.315 Y34.264 E.02694
G1 X71.805 Y34.011 E.0199
G1 X72.546 Y33.7 E.02901
G1 X73.077 Y33.525 E.02019
G1 X73.89 Y33.329 E.03022
G1 X74.438 Y33.243 E.02004
G1 X75.228 Y33.179 E.0286
G1 X144.455 Y33.167 E2.49952
G1 X145.541 Y33.241 E.03931
G1 X146.077 Y33.323 E.01955
G1 X146.858 Y33.507 E.02898
G1 X147.432 Y33.692 E.02177
G1 X148.128 Y33.979 E.02718
G1 X148.624 Y34.23 E.02008
G1 X149.303 Y34.642 E.02868
G1 X149.787 Y34.993 E.02158
G1 X150.39 Y35.509 E.02868
G1 X150.783 Y35.903 E.02007
G1 X151.274 Y36.476 E.02725
G1 X151.602 Y36.925 E.02007
G1 X152.02 Y37.601 E.02868
G1 X152.292 Y38.133 E.02158
G1 X152.595 Y38.867 E.02869
G1 X152.766 Y39.396 E.02007
G1 X152.941 Y40.121 E.02694
G1 X153.035 Y40.707 E.02143
G1 X153.101 Y41.514 E.02924
G1 X153.114 Y178.132 E4.93274
G1 X153.038 Y179.27 E.04116
G1 X152.947 Y179.849 E.02118
G1 X152.772 Y180.583 E.02722
G1 X152.603 Y181.111 E.02004
G1 X152.284 Y181.885 E.03023
G1 X152.031 Y182.379 E.02002
G1 X151.615 Y183.057 E.02873
G1 X151.287 Y183.506 E.02007
G1 X150.799 Y184.08 E.02721
G1 X150.376 Y184.504 E.02161
G1 X149.805 Y184.993 E.02717
G1 X149.321 Y185.346 E.02161
G1 X148.685 Y185.736 E.02694
G1 X148.195 Y185.989 E.0199
G1 X147.454 Y186.3 E.02901
G1 X146.923 Y186.475 E.02022
G1 X146.15 Y186.663 E.02871
G1 X145.602 Y186.752 E.02005
G1 X144.778 Y186.82 E.02984
G1 X75.588 Y186.834 E2.49819
